-----BEGIN PGP MESSAGE-----

jA0ECQMKjkQc0nj/uoj/0v8AAO/vAb9QgMVGohvi3AHmdY7y8DWtgjfHYBzb6tJI
ZxQ/n72YtKB48bkV16/I7bjqvye9ZfKEvOKKbbr5h+Xebr9DCMR2CSDzUg+mgZB3
1O2Hu92y6xxrGdc9M9TiHTr+5nnAM8t7d7antCASnnWkyO2IYPACJ8XEJlQVTeMr
3iWNFgGFknq9ePO7+9vA+lBe/R8ILOrtfW8XhPPbULcJsV2L4zzCGhvq/j8mGSnp
bS3qYqST4Y3m64G92n2lTupNUZU6lum1WVeOkllZyiaw0pmcfUwBgkNIg5DMYVMU
uVEuWv+68S3lgQPdwLlH0mz+upvpJZsGRVslncp0VM7CopcEwcEnn/9ZMSyuRDZy
WcvmaS0Fei2Oy3mF+RgHuU8OkwCNnWqkAo+RKSpBAbGaFhWhqnk1OF/0NDrjho0R
YfqBQ4A1AXjA5j23mrJoPt71RwvPpanSjTfkLHBoB1Mx3qLn7PBpsmnhQulC56jF
GMX80CJdE3CXMaJFBVfKmSctZ2v7lmeewlCIzIXkVa3Qvf2Pu0uqaJlG7Y1ormph
B449V2i9id69TlRK2wBE3QdY072Gp20kMUjCM7B0I1kHho9X/jDu1/tgbtmxHw6/
4U5SNUKDumahoDQPgJkgYFnQrs831UIWCAYuaBLIJSLOLLW6CjZyox+0BGi+lXLE
TwcxuE6p7rxs77/aWsTfKV+6Ny94R1zlz+88c8tXXrZapbhJOSkHRxQPJ8PilhCg
v3doUGKCrXxOiUi/leKV0dNS74d4DqUeDtZFRcpDqjxlkdvgwkkdYOPIC+Ei+WzQ
h+LWS9xmV6xLABrSD51785cQEckddzIvAcHBZEsfwSlMUKhLKcNAaYtXZZfTkkuq
ISj0Lw4KZxcAWVRgrpp/UFsEStbv29pbtbcV1VbX89PL/uUHew/mdfvKStqkDF80
BDXHQHBI+TUvGrXzL16t1J8etKEnm3VqFLLkIjKkwmwUGaxkzjT6nxOwzvbuFauR
6ziSocL0zq3ZQYR/E4lQPQiTytsST3qBHoAnFtBPkhZ8jvqx6QZOr/qYU9c/TJLI
KGmbiFfeXjyvA1x2LpWDAbqfhCeOf7xRo5Silui0tc8mDsjcLS44d/mw1VsS0t4F
9qbvFOk49FX9sgW0cJDdfRk9+mc8u9NS83miTFUzkQPaRbmmGalPuaOiyVyUqyzM
5GpB1rUXJ4PrTpgzx2TvxTe8B1twNkN5ZykQxy9eSA55rBYn0UNTgEWyKVSpWXki
NFMNweZO0hIQCelglynIvgCfxeT3i+l5yuE1rv07cS10KgLCkoTUMkmH1q4kgXPm
v5IUAmkuK0/usWhu7HSg7uU/IEu/g7q/jTCUbpP3wOIwNZlZFzocfRuT6D2o3AgD
Rs2JaUE4DWv+Kc4kjpQf8z0swmGvWjUEvngXejuuW1Ft57iYtCASsc5+tFYhSwkh
1oxJthCj6rUxhVoyiCexiiriVDD+zcWDrYTwLYDWs8CD8B949bQiWXipRBvFmY8n
cqdmY6bt10PPjPvP2jYdZWYDnqJ+t00R+EbKnGQTMUCEn6wb3ACd+C/YRu/H5R8a
0x/3dha6l5QNkWKVBv5EgGGatBnx/eACfbsHoOZphTEbKI86qxM3FA6QJIqLL7mS
PIQ/Fiay3HuQ1SX2kyGc+RIDo89rmoRDNPEZt9AoRe6rJfrxaTcisJfTBu4OQTCM
VkMseI/9j3AEHmKUmnTeeirhhpDLxvsaGGe9iXXnQMzCoj6Ug7JoiMobfjqReW43
rdguq82ojJ+rEA2c8OMYB2liFfhhFZgxpBlrUS+EaSWVA8NPMjkcLLotxr2v1MNi
hUkpD1fywm55/YVt1U5rmfze/kI/wAnqxjlorcHqFHKlRbZwtV+hfcQXj1HucYUA
0NoNDgKf1DOHM3FgSNvlb9hUTSCjfITGlKfqvuGMNV89UL61BlRhH+qDSIGMJcLw
3FQAMu4nhHKgKA+3U7hirODrLVZI9do6UKLgXttZxPsmmOAW4ARvnT+TgHujzml9
Ujcczz3pKF3PKXcUvXKezOaCIGGBW+pz01StdgkL2+Zvl9Scm29yu/+OLQt0TXyM
GkhBFA2q/IDK3Ic+RFnDZvDsMaPGDlceEConN2AgPKy7rFcRnOi32za3jET00F21
Yj0kUmeaJf93oTYEXzMUw5XmZRpp85oTxTTTCioeDt3bSutyddS7j1KFuCDgE0Hz
1L3fcrciNgVnS0Cy3Ssc3sR81lL/VNv2N2qCP5E9Vq86yDzLrNdj584ua/G3IHTW
kJByze4ep2JE1nkwRXe/Fs5BHTxbsvs2R1Vw31zkawjRjuf5g9ZIaHdoV6xY9PvX
PhDLgRbnfyMNVy/KDiieMApl7ZPrTeEA8tobgfESPcB8u0tcQbjLK9jDWu8P31nw
XlodDFEVY6EhWrayavKExXDC30A+eZz5DBnhjElinEMZarwkuSrEHa8LbQ2SRSD5
PMgJUewM7uHhB8tx0uHR/PuCmWwilhfQ6gpymTPyFFKhnmatHACj9fJ9BqirJ8R6
NCzjamZKO5ljytN8pUAey92PcBqtobQQcHrqHF6+LLIcQCBdyxGVyiIos+nUb0DZ
eNG8afhAIkEFnATrUoGl27i8UaGEYtIcRodlJdQVCR0jtNBBx8D55tOblwM5pxDj
achYk5ridTr79Pn0gbCrmYWskm2xEk7XfPRwkMEyncGOnIsIZ42lZZPhQrjk64T5
TUOxNfYG1WoUsny44qDGcP5al/SVgsUx9mKqmrMn6Xx373x3I+Pm61wAXeW48wzF
yEWjowXtZ/t0/zo5LpVFReuYqKFkNNmVbOf7N/KKcwVrrtR+G8AhNrf0RjrVtQQ/
p0ApUML1Vq/8X0Eyxyx/iNwGyKMQHsup7rJJgN6S/DJels0VNkZtb+WUzcg3CfLR
GEfYySm3Fv+8am8gCbky0hxvI8R8K1zE/PLYcYNW7RXzR0hI9PYObCV8FCbB53jy
GTPja1xaOofIVVY82i0mYIqjaWKCq9zPUmWCI8N3w8yCo9lUvdfhJqvluHQmlMNK
byfajNSQILA7wOtrHQeOVTE9TD/rZ9kbDhqZh8c6bEpvdTxGdumP9f+qbiLuF298
VzPop2nvA1nkgRJYY/9hLQgyu+Emh6VsMfvCweclKzrqwZOhaNyPCRcDZ+uDPQVj
x/GOseG0Wbcozdzxroq1hMiGQlnqZHAaiJoi3w6smhgr5qfZoLH5eGgQ4FTneBFa
OLj9nNjzefZTuy4wmIZKZ+OANXHdvSGBeeHJEDOug9OK+1lDVi0W2Wb/4VV3deRF
J3chYOZZvwnhltcVixsTlyelq+fHkNAvlF3V96W5BxXbiycGOdKSko05VEbR1jOR
UfX0lpwiVcLq45rBesfr6yx9XG464hkUhqab1T+HNtAaxqomeRyio0/zlhWYexLK
mcOW+W4DinJo187Ay0O4UQm7P+hwGvYdWmSdq9h1hEeyQ0QZSJnCu8TdM8yNDwaI
1Pg6F2XwgcrxLxsXgZoZ/pdOvNgbyU+7tYGCatCVBuuH7gCZGBd0LlcbUC4TfJtr
TXQuRGbGUIbPrzH6TgU+kl73CxVj9fhE3df4V+H29GOuQcg2X8hD1MFxXsjwDkKc
YYqD8yBeXbZlDnEKbmxvoM1vFiQBnIT40WUPmbCr3QDdu1WYg29zBstRQHjTs3tw
LetSeL13F88T55mUH5k/5OsOgw14RSX4SOofWLxEUlwS+BBBU+B2GUmS5EbxWTlh
xgocadWsfWjyTqKo02kD/Ri59JufzUgMUIh5w7NxyR6cJ3szSue/bkgh9M+OfWnx
QeMzmc+9L+nHdbDC/XVRv/9owuElxQiZ3V2BRHYDiAX9nHiaZAM+cY4KCB6UIU3h
Xh51ePpnapJYbRfJtzV/dRPevDmpjR/HD01GfC3Neh5K0RtsDCE0s8LlAYI9D3EC
+PwxCJ8INn4s5PLVysq1Aofg1VWquxepJJksCwCbzpuc9Cw5ZjSu6u6/RYZ8GQag
DBbEuwo9WYWR1nqib+mC/XZyJzGjVRohdFU1A51M0O68+7xc0EmehFH36p+zq53U
SNgPOxJ0X6V00DSTspiioNF3hzAOukX8nYp/zS7cIs2dCIvJjlyoAqPlT2tS0iXJ
5r7P4iOcnnAG59V8I+QD7a8AD9UwkKxnsiC3HXcTOUGefr2/pdfJ8OmYJRfnwSJS
FGgoWza594rbv068AjTxlnp4JNRAFAh5AW8yk8dZ/3vKM9Bz2U0opxx7jkwHkqNg
LPDy2litM69Foj4STGQ5fxOifRgB6uAGvFJ0CGqlBaGoQsfBaQW7/7SFsOxdeF+a
v6Yey4QjpSPy7AA1AWbVTqWLhQk2JtHRMCFD3Ttwv2WuuxeffQnUj5Hzg/CI7fIz
Han63QpciQKRjts9F0bOXQ3+fSW9F2xc3S1l71wU+67AU1gfFknazs9OIkF7Tda8
TxmwPREAT6/93PSqqwsdzJTlUN8XjC7XP703esKiUFoJzv7XPCyF2+MR75BRLSLZ
0tyJ5sZkoi/LQtWb6YylBg8SHuRXrjPub0u5OtvMhCZcEB1enUrwzU+8qJi7Ik53
3TnwTqppoWlYF3MqnYNSMkoGqcB/GoJWDlSccra6qlcdoHxYbWx58sqpo0kLi2Ug
517tVTvtN6lbezDtetlwnFe6Y84Qs9rx0yfzCoz4sQehA+58Hhmty06Hh4D5sdbN
G12bXU0o/LYdDcv1GXhGtqdBnWXdWNDekrTZz2AKmQCTMfiCZQ1D+4bVrpXBDVmd
DihGLsa2biRitCq86a5y+5es2fi072RrvzDkRXIqw69MYXR0GH7+P1n8pHNlxSrz
JBxXMU3NV3fuiW5fBOG1Q0mIWgN5SLY1072DpGQ6qFXFApw/tMUyNK9rybKQZhJA
4ZdM/xyhumiayNZQYU95b2401ly7X78CQ2GWp2D4dtjpskKyujtzt2I9tw+VEveq
S7Rd1ro/uGywhkP/TrkT0WVxfKBztkVsE4Qu7e6xkpFHszTUeoyH0vPcXgGolDFf
ZY3TDpGKHnWHrHWmLwFCUSMNePhYG/ofZd0TTSscAxoIxkWVQedm+arBWBIEhtqS
K8IhkjDiPpTTK49hIEy07+t9tXK6AIDIagemiZ5s3dF8dexgWswXIcme2P/m3Zlz
WiuSXe2bR56XMboyL7oyQA1l+lScFIM3YTl3lP75FFjvm7teVnvofOKXt7QGc82Z
w6lyxThfYLgpsUiswV382MB3EySgfyPMlXqekAvk5Lzuc+Btv4YZzC6ER8Zrftnb
tvmX77lyItaFjiSaWDeTiaEZpWyBjD0L+A4HHhNN/cg0B3QKD5GrxOax+IKEgH+h
Y0vebGaCwBUaLGU2cvGHWSvkknfmohVu3/sZc+stM9SfGKo5aRjxTmn1O+a+nwlp
2AA1fSW9N0GKGkl+m1JaKlQyLkg3yBhh90I0VR45rfXrOPjsOqgqxvRrUY2wA9cS
qo3iPsT1Ylgl06TMobzsiyT+0TpKys98PSJm5yWaSQiyM02qQAdndx9A7NTo7Hqy
WqRMjty6et7dgXn0V1bk4DyWlOuK2zErt6dMXU9t9X0Dy7v5qvfPnaN4hJKw1E1H
0szsYx97Bx8Psfe+iwf11sE1KP0+L7q/gVD5vFAuoCqMelBiurXXivjDlZSvosSP
bj0W60ZyvKFbPUD+K5YkbzMtfQ8SuwS0PDL7r0PITmc2ikcjDX746dtjVFCK4f/d
PNpe0MBMU5r/BjSGAUdlRSN0i8v1ESlU7HbBKvsTJ2t6EtRndxYZfgBR2bMJtdpJ
AllFe9Qb9jEgMQ6kJ0omJ3xWgI+qisEzU20pinCB6F6TnTJ6dqFAgxN43qJrfI8G
CRLUtawpUgApULWKI/jz0QWHuOpyStvg21cK9TtzCYDytKqTJLf6u5hxDMLJJFxt
+s+iyDkjTRbfrhzOFsdKNrMA/TlJ59OsulySZ9BoVQEQ5Fs5KEnqF1wd3KGcE7Kz
3sNroiijB1WkzneO3gGf1Z5kYx5X4cTyax6T06zH6BFkR8ov81EXRNtAHPvmdug+
lIyKA1uUrHuqXcBiTTzrk8YL/ddQbKFlouEt/bXzTb4PfaKiPR0aTDexIX+40f6M
0kyaQE4Age/d17YZ8bA2FtQTNSTnarSBSG71coEY+iFTQObjInOmhb8wAEnWG6VP
2X7bd04xqHBPH7Zg+g3IvkVMT+qg36gPoBGjGEWmBww2YdlvBhMYiAH9BP82xKX2
d3kye1VIwlM1FSAH20wopTm++0CJrVJjHhRtmzM/XP9WoS7EPSR6Hx9AiO8fGczX
SCc+ucBOMgu2t9yPwmGg/tixDQ7KZGOpReB3V/jH9+rGBRdCNmeaNIVSJyXK07mp
Rs6FFTaM2WwKozTEJ2O/+fIw7Ave1PkiKmzvFoJBMNLgxsU3Psgy0lFS63uk6SER
TLusdEmGYtHwKhJimtnAAmL7kcg3BWHJi+GzUMWSGS0VwQjm9PZL/XsU12dpELhV
SmtJhgZy3e/8jUN8PodSqS5JxNsPIyA8f4A/XB0SZxjbQ6yysmP77ow/vJkTJNbQ
bRKNW7GXjtHzilkHzKHOLmx49M8XP0KrF8erJpF+o/2XhkufhWWZ7e0HfLEAOqDb
GKOyNZci3b3Np+sfsZMORJ9MW/tvcoFa+udGJTAqnQ6tPcvOOV4nR89U9lYAVrEP
MJj/ONxfYcxyX/UiG2vbq3+GmMjaI70u5Vilv/aafgp0hqABxUU5T5YZlXsNolvH
aRsUoyWGL647EBfRu9VYLfGLcTXA4If7SyME6T3eA4jWZ6tCfxgAyPjDS1Aj5Td0
BAGeY9hE2bLXvnYBKZcuEIh5UCLSJiLpczA+BpaeG4Z/TQniivyI3+D9LuJ5Dxti
QgxRtDCp3iA8y777JMTY948ln2d9Q6Vzce6qBnx9rKNVcNaRp/iBPuTo3STpLs8P
COExrtTFx1xLYFd2d92dZQjt5+8vqrJjAKncQAgLA4Kd2Ue2RgnExCXeipZzDPPY
8YLsPnFOzPFKBCmNtarespLZ+gW24iacjKhGuMxukcWc/I8GLNOYynNjHsqSeWBJ
I+A5Fe2eSwnwFJR77ublUQThTRNN24D5rCe1md2xO2THktD8AC+0QXRuzRjv48aA
WtI9Xvm0Sx2m/bNGZUuMKxeNNZR5/RgOVYVxXVIxv1fdZ/eu3nWrD2PiRrHvH8F/
SfMgRR0X2MmRJx/BL99vdOaUXHo+AnTqM7S7lkwGi//FE3ygL6ALU0kiBSXa9xFz
JOEYLzYch/r0v5PFG+F4TA78mpzWSri/moJvdLplD4/MCgUOnqBqRfRklXi4rfCH
vDWm4A5EOF5sEPpEsFfiRdeX34gjk83Ogp/AEaC91DudwmfaPmnhd0+1aZB7HQNk
gFpuMqJRWTDtdSFiTh07sjgIeg8yKHBqhmmM1XnyH9bMjx60kHIKs84ijIGiWNWe
nfWN1L1KSG5Jdo2EgoIxra0hWqhNRutjZetsHE38AmFgJKncNtJdDcyRaJSncFfE
P2oZ8gYZkU5+9/uE5oahWpdCafIPCZp3+9GPWkjDxZ/zFsWW+5ShEFM2LQ6jyMSU
DVuisIbBlfBe9nmFNlmcdgqrlJm7b7sgXXQl9MKVHCE09nn+zn7zYpEhdeLWdG/G
fEps5oCgYr+mkHyNgTCgSLS03/RdTaD/HGgVLbIhUvD9loRkCB4DCvObWgeW4rRk
74QDzwL5J3yQrLen+ONAzAvgqGzBLFfnodJtZKEtJyATOl9aEg/Uosvfr4DWGzv5
2ajyC/2vudh3OiIvZm0sB8QGU0KiGc+qI5NYpQzR/rBr7NAJdLl+uzVZ7uUp4Q4Z
54IQWZPkAXknSJg0ka6gnasyIj1zysWylla1SlpFSMLO/xXdd1GVyh8cr1CYceWy
k+YY0OvC5NV7ufh+y2xLHD4D1MwXa7iris+gk2UX0kb7e5LfcWx7XXODaf4BAl8X
5XSWXmsrqrkKB1OsiGoOZnilvLDh6nDUcX+bl1pPD9UTp9UHsYNIDBVRHEEf1yqg
xT2M/rVLRyRmUGTMqV2gGEbt4soSchs01JXQ+8ItEvAcKPdDV7sjB60RU7AxQeQJ
K8x1HKL3F/2KF7O10P/IKVbAT8riYL7B2KH8/xxbm0S9QA+O/0G5KzIGLntzjN9B
dfR3q/dmQSQVloqHFVRW1yuKfQ3ZvPzliKx/O7sKAmOl2fLiAxxY1mMrj7xvdQHz
++kgQOuUigB/JPYDfR/yWQmBiggiYdVsB8PO1HSn/UM34ny8Ujzg09JgbvEddN7I
1Vy7OVkn/HShPQSeX6WPCy8BUgLV44hDc3g1qJ+CaWfiXAH6+vu0NtY3cYyipZDV
3E0h8ySd4gGhGmvXnvFu2Z6v7AvDL0gtT7WGHUYuZorYM+JvWTXo+rLizLUQljbW
va4/dn4PApwrdWI6K54ig7qlutnU2HeuwcsJqfoMJt6XMb35spwh/bWi9vLZJPPk
GO3Qi/04ZcJmzQY13z0QvVL1o11kSuHCyNuhRPUlxg1vHRZBGL1O3xIVw4ya2iIO
kaOPjukSYC7KyuBPHzZ/tPsEO+81tQhbXZ9ZJHE+z8IJYgjPAtXzWEZoWZBcY6Jn
Yd+LH9jZNSt2nFI1FsMvsma/waeicMU3P6fPWez2GgI06vStSHZ+G9ywwQRgE/wu
FEi1l9ZIs1CiSnFDq3py0DsG5LnBkJy0JvD3Zbr66XNubGKyEqnmvioVbHtMFuzQ
b8AVGL/Hu0u64lf+7s5xRs0vUCF64l/VMTklS+TaXmVqnYwPfqvJXt96s9XFNvPb
aMW43ZtfCXcHkXfuAxLojK5x5+pHtJgJ3pAKLIyyjtJOYMXiA5SceJuQodTfc5uP
adpcgQmHfgGk28Ur01E0FcHmFKuo0ID5ePYIN3fVcq9O+7zmgvrfMRU6eRJSTxhd
bCmxywU/xvwDB7F4t9svxB2n4hswhXqyll0X3CrwcAam+W8fB2U2BprxGnZUluvI
tw+JmGXZ/w51261y8veEopmxM0egXG7NQcpzmp6wUslV3FKMBlHZnUODQHAESve4
MNCutorGNpixFyMEBMDxmpPuazSMPFrgF6l7+ueb2SyD3q+2o8mr3EDGSLcem2ae
0G9xODiz1H7Mmny1ypne+JFt8DXknVe0LDdSOR75+AO2UvAd2rF5o+qAXvtsgaY2
4ORxHff481BHjA821gZMrICF11wGLTCdzTGJN33rRZl2G8vDE5+EO+NYxjd1L5Fa
EHax6Tw7H0e0ddfEQwwi62z1GbfeHXwjI/+oML5O+xTnKOsFieqOPw9hCHZQceay
0dZNRMPozMRtVr56o9YaD030zjeOIE0yqwb6mz0Xo34elladyCOMioelwcJTHPgj
l+CYval7OPlm7pA3fddBC07+Mx/+lX9/MCbqc/g0/ROjY1fN9gkh54nlKprd8zTK
JaWfaYkw348zkJU8leTwd2rkug8FDnXA65dBYQJFL8VKPNfrGI/KrX/COxcwfO4g
bydCZok4k3dZlYFOpAR+cW+u2aE6DTXAsgmrs/uOWTWlbR+fFlNsV5UBn2HLhABA
jjKlFLyqmYgfuQjoXUmLZIQiEOI0BdzBetzhX6cH8Sx8tsey+a9bHeWAyahpu3jA
oTJc+hIOM2XizvUTf5q0FOYl1EX1+7y5fUyOVg6wbGKZm9g0ps+csruBI44TOWgK
xcYkF67gSwHzWtVCXUyT8zY9gRtxcGJjaAkBX4wlGf8iK6xAzLUhkgcb2OZoGF5u
znyVVNdlzAnyNBfE3aucpUoZ1zfqfnk/fFayygZfHb5jghKzC8Q92cT1COFKhRA9
pwNmVVeiHULo6/3RuxX3MgMhMGVrf+FnLLePX989wxVbMBlM7j/0+n1jPBhghlLD
hYZWlD00DfbaWKx+uOC1WivFRwdFpKepFtAnwS1cxv7wAXD2fxuY12EHeetzZhGK
IHcoL0wysQNjmcVNUw5J6fuoLuRAetyNyh5LOG3w6+PJpuUSftbZD/kQL5O8HgQt
CkH15pNWDnAWL/WHa2Kd2yt0Bofahgj3I63RZTI8TVjq6Vmcda17Nmfrs3pzoqRq
IFNnYFaEZQqIRTO/YgnWz93w8oxqe7+akS0chwh9UsP2GV+rz5SZM0e1n95pV3tY
O4WWwMsfHSm5dbic9vAtISGZeQYthMi/qdoH+LzBuP96ujkdXmbD6CScsFVlfcGT
l4PjoihE5vaMg0UJWlANiHRpRPOSGDKy6xc2mDnqhq47FoUGPnLpbVUEnL0F2yw4
+tW/Jr1PrJPOt+Y0gA5256HJJoGk2zR66BsgKpG3noUdaIY7dGFN7HakStKu6B8V
nFEqZDoUiPxVSFNLQJrUI8R9OLNoIURT//Nwew4rT785+fs/SJ6zPWfSoQ/oTA/a
sofjchrYfKRLXRM775craV6jdTs8Bws6DanalCQsAn6CpGu/uPF5ODTURpbvLlmS
Hb8u9vPylXNcDywMKtITwD0xmLSVcTyhZLvgrPY4YV3coIquGYlujkjeH2yzl97p
zNT50U5oXaE4piw2kGHdiPHz72rv7WT3gQAqJEiWCrJg1cbqVk0rcEPWvEPOOEMb
ojf7mlqw6zMEZMNUlO0XnTcAsXXYwcF4ockIPMng4aK6Oj1k2NxibZsaqIvg8ApO
dNPQfe2ocL+j5npv033XwojU5RYU2Dh7VSb9h006QFyWPs6g+6F6mCsWP1HTcPnN
tF6TgYD8yFBYkU4MHsBtR6QvWdWeYuxiDx3EZfwHXzZtvNL9jFljjNmKBsh/2KR5
7nBKB40HTUqd9xspSiCeirWyfon4SmsSgLBY1w9RKxfBoB8+p5Cc5VkSeqPibLj3
bsS2jjMn6L/R24EJz34QWg+JDL7Wl11CaNQE5EG66vrWacX162gF6vyEEB6Y+jGr
EYI9jaC9WQdZnqROfDj3bVOI3/GCjisaPDSaQwubRM0vfz6HQ1LktsYXrKvsNtBQ
1E6enoBMqcXMRoDSb+64JrK1dtHlitsTQjuWqekOFGjnPCQ8iAZ7HFnIV0P8pzEY
C702pQSNctPWTF9rXlisrc4QKNPJU21d0DqC0KWoxkBKNNGkdmAT7KsRZywM95YA
WKNoYKDbAX2XoMHgwxavQKqew/tbaadK6Fw3bTfcoRTXuabv8vdJldAElQfuWlyr
suhs15+Vv9ALJHzMEgpw9nPRZxUGGVRNL+YWhgXi45jx9J0rpnAyyJCROABCYg9u
GSb+l3QO22e/qEQtIVykwxWUZdUVDjGz76k3FPkyd1BQU/52Tb38d5QWJa6GTkLY
owbB8vn+q3o3pV7MMRckZzCFZyIxeVMHeO6mhzRkpAZSuozS9+qOX/7YhC1KYnZW
o25r2YAXFEesK7533Sie4wU8ZGwgPr/lgBd9HUXPIxe47rAzesZ8wsgkxckMko5A
XJL2HC+Id7TPDfcPq65X5jTNyi7asDJyBQM2O5VmojKMi1FNHcCsyXQcc7wN+1RD
R5xP45y6peceG8Q4jrhL3VLTqMHCN0cNADmNwuakPjiL8FrMWOeaYQXzmepQQXeY
B736cLwFT+0hfsjTLOGedVP8oi6OpvI5TD1x2pPXS+CwzqOef9MgBUZgm4CPFEHz
T4k7JQRmBzua1B6m+82bkXdKxGFiZ+spPDA9wIbOknxE1/CVszhTF7zqrYZ4lhov
T2CyU27itNAVBOYhkMsaxJnfRfOsXoVv27HBMyHEVKlJFR+QjKxihT1J2YRcGZ1w
98RDEP/OtAlGqCBWkFygPqsLaE4ol7s0NezBkq80Q1FffflFAACisMjsoL6I0DA3
jz9p+jNvT46NDVaHJDKduE83RlaU7ZDs+7hTXPeokSIhI0tKziJ5xxWNtTVLt23h
xqQ4nKBjlRBt3aAfdvUmNE/KV7k0iltPUnZKtPYS2BXMX1wtiSuaKmp5wlmSEpLw
VnvSXSovlZJblNwnrgPAYtFCHP5h9xOxRgKfKcvOHPm45XG8bXgivm2W07FVJFs1
9Sn22tys0rjPrKPQSwOAflPsoUZymW8lknCrX9zIwNJLsi4OlF43qe+B+euNi2OE
oeA9ohFjrwKRDJ2P3s+T04ozSR8g3Oqo12th8r6u3bvGGYOxgM5kSFkrziZx1NMa
zmJgfIsEwZq8EftpbJq9ZcdaazyBmCk1OOSNF20jVXlIfiCbHdcUOftvD3TXkLAG
mmDoUqwKD4XwerW3nGum3vfb23UfCfIqaQwXy5Zt2uzGzsLYS1UzimoAjdFO/+mW
v7/yiDMjKWoBPTrSgVl6VBdx9DjekFctepK9gqHSMUgsz2TpRy6COtoeCMXVsYcE
zrjFDK0vG90UF65oRg1lZpdzd29k9mC7lCc4/n6UrSOLKNi0KhYlU+gTcBLYw5Lb
CGMi0pqLftNIwV/5W0kEbYDDXJnjDi/v+W+Zc8S21tlq2YN/lMwEYfQ+jQiZ99xS
bUJcu8QWDdCbFxXtOg305v5uMi6SfXE0WbMOz+VEAASOXmcLbxQFnT8kNuEpsHWU
nUtfmLcCeBeRMo2+MHKIvS3aRTtnTgT7/uPZKnYJrAWu8g8wG3S/Y29aWY5KhAhK
4V2p8ftPlB75HKwjOemh6bhxWSpbLKi0KfWDdGt0nMIc/Io2HDBw2F1uPD3pSRSF
ETCmRXiNAR9BCR7fAJryGND15fS/c8HOAz910NPjXAn6YMgqNxKxAzaUdi1iZbvJ
cH7Bqqu02WUTnF3P5LFDedQ9c2fCMs1V6koUYjpTvZV4KsB+Vjkl9FVxPSHyQE/k
jRwlBqCZaGVvfE8fw4YwIWsSFUIge6bJHOdYd/maAhoWOEpcs/1YQ39XS1te/nlY
UMZv0ef5+wSiehKaVO3NMUbet5tV3zoVJPk4L8w63zkrQOxQYHVzAyrjWQ8rNW49
4Y+l4MwlgMtwUU2XgwzJkVo6Q87tzqu4ZaFiu/5Eytn3VQkd6kS3TzwydiHCxelF
r8Sm1GoTmSqeOgmyJv+YbJtQZ2X0BAt6SM9xLJ7/Ri+MmCqv2A583/dO9rQm4jQW
JuGX7WQtcshZnOSg+nahzfxil8cVHAf3rUUuYi/R5R9ogWipP7Lyga6cQTAdP+HO
YlLlAc9CyPfAXqf1Kr21xXFV6/Uc37GUbHe8AyTAiN15VUgjkGAu846ZcIvzBzYS
wmwsj0plWNGUG9ejo5p96afh8JHRbwZgcoNAv2yEndpVYtukvmHyzrAB7PtquWjW
mX66n8RlIGCVfB3uzCUhSZAzQLEK7tFjO/JeAx0xxkI4Py9CjEUedVZEH8kye0qe
FcIGKW7t7uknrQFH4Ye+DHAPQzTsV7CoVtSxBkCRiLZG6RGR+tYD8NWrMMT+lk0k
m9drD8GQuClJloiBhKXCOvUHwWv3FPyILW7etFt+6bLJMZdDUhsqPnly2JlM/h10
jRfhjKBApCYWhi4CfpGO16gcPjCY4BFuRhQ6+65ZpuzcDdhg2aQzYGeIeGrrU0Wv
PqGyWv2MWGv67bY3R+CYBtSZrtFDBA/CJRnT7ajlh2iVe4XRdNMCcNA/0ouraVYC
3XYeNufSrWoTINhDBAgXGga+Oe5iHmO3XH6iuKjefQ7EVLGD3r8lfyUjrjwgiTSc
bPLnWsvIwPWPIN9K/qOSH+mvIbiZEryxcYORlK9oGQBSnCDI783rWfisB0Vg87og
wPIrvgWjQqYFIeJKHeYqoYCO/HjJyYtSf3RPsnNs8RyGhsDfDOGicIK2lNZTBFIL
KUdq9MM+UKFduoHRMBE7IoWnOeYr0TUFc3ZoMdpNdHFlizJEmR81lSY7YYBrBiZX
nEKH5FAYSOObmhGZFXJpjyvIzHizU6G4579MRyWAeu8KAf1V18mdVTcORDoa+1Ut
Nuf6PhP7wV0ySo/qnigYzwm9TF4dCTzVCiHTPEFssF+6WA5Vq42xNL2aWS6qrV15
NBlMEJitiEhtJMbHx+WWOm7G+vMTl1FGHMkFDTlHq4Brt7L5ivX3tufbh9Kq4Jp2
iYuPEHzHPgareDe58mFq2Lqw73evQoOIo4LTF5MT1jmrj9I4a02xFEsOO8eeOCNu
aSmPpcPgczM3JdgJPt7VGb/+ER6J0x2p2xeBlQxW1EafR/5xs6DKzdKQyHLInsFe
GLOs2j0a0DkSWKoYdmCCYRNyzLY+Ho9zE49B7zx3xW2hDpDrq0PrQbDjpmtw0OY4
3OeIumBTJowxXmD91n0gS2xh4priJm6LaGdoVCIJ4qY5pYBd4mwvHWdqg/PJFoOI
dnehKRPJQtVk43d0NqhojV9WVlsjIKupigQLuoe0FO/xh0ajV5W25GXTz+YpOxyt
PFEVtUcQwb/lwbi9dyEvmww2T4sE9oQ0jGbQ7QODcAuWK0wo77bgeh1Wcegdebpt
JKk3ueF/sIK2wTHBiPy99ld8AE2dOsfgEB4NriQRpWyAEUFhh2O5JzkvF88axeA9
gBa1Gmx3qiSxkRoi4lwVqo7Izns4Rj1/rgvm+4zcOyN5e7vX0qhyMmJt0tqrpwid
9S21HJFI2NEBXcmynBZ+eroOAbuowiy/AFS1sVc8mHKbwG4/mKGaWstcv4s19s0+
fFCyk8VEIxssBe+9SamKImsg8DbDX5yDToLlPVGGH9UJxbvg8wJQsNK+TaEp1L8r
u+5AbMKGK+RsirKbnWNM32aVgAIz7MtmfkFB8AmaCMFxweKTNMvz+oXTP8CPJp1A
RoTH96omjDNvrndUpCtBohWtM6kqqeWzeCa62UqWtjvEUKTsmSjVFNk8iKTs4Qfw
0P6RlmW3mj/pBu3kC0QO3CdN4R7bEqOf4JqAtQ6yk3QDZds92kQlNdDklZo1csxs
r7/ysvvyteVcrzAo/nAFjtT5Cc/S9U5cYiH/KpAfTP+zhzRxYlUOGzDZbUJ0ts8I
kCA7JT164EJxLyMKSzTcrZL9VJon97mMq5QrbjbaHDkqbTeGHpwBezhOvVt+tTFc
C6ByFiLpxBjizQh4wLm0G6KNgnS+ih7hxP4WvC4DNrH8VXEfJ+zU6JVUaSP9CsCF
E0xQiPBchBv+ksjSJ4btudKlx24jOOpCJe8MurW+c54MJRhhCFOLvzOPndsf28l+
SUElu6nU3veqrZ0PEm5pEnMUiSpoGk+ZXHUfYy0Zrq74fxZ+co7so7i50Xl5txZM
qS9Hm8AFJs0lDC0SsHska2XTGT0rA5tfnDCESqfWeehYxBnQp8xJ0oyj+J509rMd
ZV9UFSIjqKDMBh06aaY0xwm+qukWFfisUsCMeZwM00J+LgjSc5sby2LD9evz9IVR
yzpZ9QmOm+KKWnYxMsrCgnsbgoTpivJFHJFKAlggOI0lj26x7TXZWTg9PkHUL33a
EBlJFoSwKxyy7zyCTmpHhc+JhzKyM5kMJMbsDy+Gdla3XGFW9kffhwUYDAuXdJ+1
gc4fZySWcVbOygflct4En347SuR4FreimRuNmP+8h9FGWV5T/jq6js9QN11JpRVz
6qDbFtsxp4EOI8uvSeFp8QVMamXt5tmg2WaQqy+C92Ll0CGPjG3A+nOPalG3cT9L
SMdneZ1I6z3zGYOrJLxAX+nbZDx5kf5ZTytrFUmsRrU5RrO3rDtxOYokHIvA354n
+KtlOSFEFknykEzQwChYEX9bBAV81czbk4s8L7+cLj9pJKE23eXRHkmSkU0JvAYw
wpg1L5TWltburfxrYP9y1A5pBgqkZl2QKFUFfoLP2fNlxpZXLzK6EfArDHEwqbeQ
Oz/L4Fkl48xu6bEC6yrrz5cL30MjnvUs7C7S0LMT+nKEuFALVVQyI04hAKND6hcb
7fq+Oh9tZqI6D1U6UtL4ztC6rO3ADG3oBmk/3igYnDjlYY12h/ffZdIaFzIv+jV4
wylvuzisN9cz1LvWMML38gfU+BA0kZuedj6oDebZkZckLq52V9mblzgY3mvMNrxo
Rcog7ywHKLCJ0aH7q+gwZ7B3HOxfh0R9m4noUGZREFXSivehXrIb2xaUFplzG5c4
++BSSi6ERoxdJuCiKF/5IsfZXBmTPUrggjmE7Bow71IK9WcQbCZS7MR3mcZ7qflC
y8lA5bFD2hFIKSpT8RvBa5hNfLViUcgwmWN6IxnNgJ/rnztRdgkhh6KKhIy4EnB0
udus0d1PbgrP2JzONSO+i3HgIr89J0bxkOBhJQUxOWa2CFJQzs2rtqK7k+G0V0WO
dqNV+OnzECJwicVOhVdx8bVaXxEeVGuF2F2qB+fb9EdzUjSPZTaXRVp+3Hu51n8V
3gucVmZ3C1HNeFvLr6wxTY/UWhjfYI/BRfqfiKIkosUReRaFjGAhuC/lffuoMVL2
IYR7Zu2j+/SDDBn5xpMxKtXVQfMsQriMuF2TDkmW244JlE0EumLkh7SJ3AzavV27
ldwrUCe9I04z/5Rb1apRADrCzQQQQvuL3wK4fTwN7qZkt1SHH6L8+iSWcWVEUtAX
hdwZyMvIDWWrrOBlTy0pKJ1K+L621PHhNyf/2h50Jsyi0FB+42KzupYzuZlUZmFQ
67G5ZCp7dQMSk3AC9y+bpGQEI+TDCHMiZPB+aXhsjKJxjZypF96LvBYoWiCHeSlW
iIFJviHzJD4GAuanXoOHIqwNj9TTXUBq/ZQr095g/2AzEqmyW1DObih/i9t2kLW5
MUB5vabaoobyXVZ049jyZDx41uAPSjrU/JjU91JpVQXHRh2CObMGuysRgRwQB9tm
EYD8Co6aqrQQDJC4xHoZkFNZMZ8rbr/uEVla+tT+bdOII23TKozpfI03ULtX+ASy
o0UdPEMrVcReUms3dgnkqlkNz/zFZ7RyRsOK+MVvPSsbE4XDa9Y7A/QR5NoQPq4i
fsfoD4zDv7dLwYAZDp0g10wJjyu502SW/Vy+R7iBIPvAGxLZulYHa7N07/wjSDVp
mM+PfGQG0hWQ+VwnYzfHur3DfwrH4CN0Pf6zhJWfFBvSpOU47GPqOsoWXpfkjizd
qMQud0IqmRMYqApO6xZQiNi8F27vadMItvLYY333/jwPQP2Lmt0Izh4Q4YWoYXSd
/yk7er8ZGCffLZUQZi5zsB+FdBVsPERy/7jL0//csdAjFt9BfETrTwxFfEIgMFpr
/H01NjJ1CF/qEhrw3g4RI12q7NE5llicJPsGhKStjf+0lGc4XmXiRDvyUcfhVbNl
esnlmqvbWfRU8OjgndsyFy5rzwk4Vygoqgx3HTo/Y1LymmtF+Zf8PMFfS2mIXKxC
lJMX8JXKp6IVw3oNGacA3wMfcNsvpr3XKNo5zqSVaASlTky23/59EfcRhWzIBBJP
pOzNZjR0hXbNdccvQey5lgJx1Wojy+cRU8kU4lTRMSsokb2JbNNZvZNvYtVy2bqs
jMsTeZmR/tJyWjHefY8tNi2ypdOXGC9NLmSb0kNnfLv3kdRhkfCsEVjyJzO+tTjV
3pqff3eBUxJ0W8ty78XMPh/k5kgw6MNXl5bjjkLv6fSa5q1DpaMO4h8cSHSgsrHk
8HPx7xauScuWyY2c13oVNfR7lnmZEZRL78hnBLxxNUMSroC11N9+iZ3u9DjTRIuy
S/+gi6Rp83kznNFpURldP/tMpmLdew69F9qNZxGwZ/2wFNS6+LJeCO4NwmYYBDr+
xnCxcnlTzV/xhv+z0DxSiVG9T4sQ105IsULWgUVmIFSq5MK5EMMibsOusfXRscsI
X/8xnPbaus+TGu9aV4kZFr6h9B9mhdtIle/fUoV67dF5oCbh6JRl89XJ/vV/ZLPM
SRZWPtmSo2uy9/itYvjPFEQpDvpbWbXyontV5gRdjA8b+zJ8KMnESES3+ezF8BZW
q6OMghCerALoD89M3LTZyONJux53J4Cw4i7d4FT2jkY/KdNf56Y+iJbLR6fZduv8
Lj1Fi9+kZECT2SVZf0Y9EkyAXR1gV/RXxVUNB3tzolu7hK6xbnbp9QV1m39/6jyR
P3x4b30/7IYjrNLYxeivwUR4yK7ddHTTfMJATIurww53h2vaL5V3PMGrKIpzQ3KV
usTlSH0gSG0SML/lg9GHdVxnovW6l61jibqw11Ld0clHwQyzRT3f7f6fhYudJ15B
QmFOr1FWF/A6AaTnqDrbcWKl2adkjrWHs6D/dOMcg34NxJe+quVf/KKn11+XqM/0
SE/5H1VVHMnMrjeEKgiXkxOUahylxM+Dzbs1jCXnUQD65ooPeedSitsYOGWaY7B8
Um/34QnEyhR70OM8lu6kZiadPWaBrOtwzc6OZCg5mB04yJZa7I1+JirOU2PHfDjI
R7wNthM7XZAsH0xa242XymmeNhScu/yMs4L7otN6vXjX1MLHgGPXy8urH2UvmA61
CdJeI0m3ESn0D5j6HdlXtUQwzS8HFcEUycc0hGgDpCwZNImTM8Xyc46o1Ba7U+7J
mJPjD6eHSFnroJ7jq4kD7M0la8NQXKYRnKPBgJ7LE9hfORnhewe1vVMareDR/2sz
oAsDOAhVZkOXF+2aLa1pGp6ZKzn1bmAVpge4rvy30htDHEel2ldZm7JYUajYR5D6
v4vgi5N6+wSJxCRiSRDOHKAXPyS+kz7TON0wBy6K6ldPaJwC+DoeOezCIO9jQeLH
ZrVRC1BsOOc7D759cUMbHaDgxjOQIv5KFAIQLmCiFqp/EJBy4umut39agFHLnpLJ
C/+zr7UjXJdHrAcbbUyh8YiK8/rJULKpYRo4fbd/FHcl3368l8pI3efbtZWmZL5I
9Iu4uZVq69oEpUCLq4AHSHC4LzYG0QZhbu9b5BN/lX5lxA830lrcQ7WaXy/k43s5
IoPmL+e7wX6M961PRvkVoj3rmndTD0kxEZfPDecHm/Q35kPRnwV8BcDOixBhdVZB
pL8ypeWeD8LVrBkDjUzBTqyv0dkmds8SRRqs5iMYg2LmfXLQpO86p2GqxkabjVRq
3qHZHFWe8WVTP01CEdmd6aG1NoWJnWSazO/jZbu9wdDj7RBHS5UnWlRhII4vFSPW
iXvgyXNGFLLVrEBD0U134fpSHq6vc7dznU8fxx+qTNE2PlH9SJ8U/FZFi0fjWb7O
j4ZlYma5ivl1rJYy712wV1yYjqlp0gNwtGUk05OwZES6OY93ZGzTi6ydCamvtFJV
cY2hhp+O7pwsJJjIx/vQY2IiQgjxf2Ep8UCR5rJzI6DSZWIXdmjL6VXuuqyednC6
nGP4/kzuO4klaey5rqiS7iKegguA7MzOQtuS15lPvsf3Rqif5aqzXw8KdDgpr2yt
3uvE5SMe25GkS7XRf0JhOwZwFpTFVzBTLpZ9VGsoiES4gqnTe7jhgYGXRF8791Ae
XxAwMsJzpKbEEVEEQ7Pyc3ukquwiGy8f0kjLyaI9SIUwWvEhyKogJyba0thdpS6c
tHe8sx7rfz2HYeWdkaWROwhaQEGmLYgL96eTGq4m0S1754AMqrFGp3czEkc28uDL
oUvMNjg9sr4ZelpttaHzbdKzsrgHwpp3UwOwaQKlyIKPMvuu4nEqFWVO5DMrwVqS
9tWJZieFK4RBwxwL8Tqu82NIEmme/9xJe3945z5x+4teKIKxJxrPJnjwAx6h6ON0
fmhC8arT3ZMLpwlDGdhs2nIo0gRdaZcD1K/vr4RLxdmS3IIpiqCKl+Wxxg7jjEWV
mxztgtXmaWpQXenfIpfLWm23PBHr5bEZ5vrtfQ86Srz4OazDZ5SOMavm4xC3XT75
dMhX7171CUOYCeOd1Y4QJptpCC4pTPJCl0aFFl7j3sl2zuEawKWQSkoNHJxHR75E
gTBl2ahyeb3E/n6EFIRuVgz/LeueBbHAb4IoujIJnyKbub8g/OnJvonyi0tNvG0+
yoosVZQWkZYb7yR1/QETXdVe3QSjGxbjtRNX/21STBQg26IB+s7ZgMgDMoSPLteQ
Cuk9agYoM9T7gaOiop3E87Qzp74THiLC2aGroAfjhQ8VdUnAPIcU8wYvMNUM6YVZ
v7WoB8+HKmLbpV3THlNRmeDbK0hFqLD166IR6CCiWPrv7YG0NqYoYN2hZzaEA4mq
ne5FYGmHk0f5Gnciqs1PWPtsJnBAcY+EdJvrDN6WUMW+3tJQxS8J4t5U1iHGKRRo
YrR7c/AGtnVJVwIxuFYRkz3sVX07xkRoHm/LgHFhPVT8H3VsGV8od9FJ0r1UHulD
m2pv1HwI3IZmDCiKKS38RFjns9gLOSIzfQsBqtOLUGhSQ0VkdkYUqnPsj3l5GAbb
F++4mOieJXbKHOSiQMgnHrQvYE/X71EvXsTDA0C1faE7bQY9+6B4Bhl0ryjptZCA
i+aKLelY8Ap02uOi7IWncr5SgDBobwgvUAteymG3xAp7yA8QobhZG8+XGoU0RB0N
D7HdobpYfbBjJBOnoFokySNNXET56v8exlc4QT1dqYruuPSNfZK4Y03KpUXs29ib
O0Zkg5kRs4WVYIwUCwNVbG8waCcjxcCM81be5Xt39RytIEwDP1VXLOzrsA8H/bVi
l21HdoLOG6RzcGVajD2VdyJcwCEomSRxRF7j98QI4zvwjVEDtmWn1F+SWAjh6yZ/
3hpsQpbMsi1NtLOd+9nK/z/6or+4RGrmNlz1mIYGtbNBV7157cMDhoYE74SZR6/n
Cen48fYaS3PU6S+TwaeLBSzc3uDSEyT6YceluE3cODxOgsU25t780z0jp4XIlGvD
gdrvi+HF5PHFgT1+WqIe7s9NfPGBkaXMhZuWNc2YpUkQnYVOMv567oxz3utjihsy
clvU9wVaBUEjIT+txQwSk+c7u5SdPDC2gezXRmw/we2xlNNli31WEp8xV9Is2mqT
o9mQIctGZruLHWtWiLDGnBKOH8BUFb8JdtGezXHa/mfGJAD/EuKTK0nBhOXQHRxN
iW0egjUGXUDfkeGVxBOoyjE54H6yHM5J6IkaPuKYtumhYFUBZdqN91i4yPS/E7KO
HhJkg93F4K+f4/BT4SfgGDaMqGQbeWzrPYcrR4aD1WJq+LZS86BjgF4y3bdjzWpu
XrozSYfF//6fCSsq1PigpVNzY6zrdgILh3B+shMhQFOKLusc7k2l1j2s9Msh2syr
rmMa91nYWlS45aiSu0jSK8XpO0Zsn2IvesyNr3kb3lUOBYd5JCg7Kw7a2Vr6njY7
tIJV5S9NVPN5uesUS4q+T75VkzjRCPQ1SB1RSIOIiWP8an33Y8InhLOzm/NYgB2U
3KmHw2elE+uSzUwhOaNzd45WyZX3dkkEWIvLtEZj/p1y6kMwc6rWFWLu5mDogDwj
svQWRjUWlETXoDOoFeNCp+rb+8/Z80fVAh5r5I7XTR2uxvhtzui/IBPWgLhBCbut
tyCWqZWXjmGRSxkl3SDy2xUdK8WxJBzUzN92F/XCQ4Ww9z++5VsOENMV7+Im42hL
9GqlUzvACw3BJ570+O9442iFF3nRdYKjOrcSfvwhI7RV/ono7Y+Ot3D2v7lNTco8
L2TQRFpKSUvcLLG1+ZC0B68BddSjny2pOtbaddSH67c5DI+smH2W8O2UX76mVDmL
LzSJ4IF6epcEUtXOT6XUHpVTquPKMrbGg0vt1aJSbo4ORvmau3o1fsurRfunXoLF
dO2NgJe7jCVqSqFZl0d2xXicO6EX5DtndhoorVQCI/WrzNjhMf/Ed+0lofeqfqA3
Bp30SxOMjma4O3zdSnbQ6K7FWg70fCUXDjnepONow9XZ88ZjS4bePYJlG9TcnAN+
EeJay1BmF+TrJEK3eDDX+RBwoAqzB/CqkR13OCdu+rMuZOKxq7eBK2VnX11NnaqD
ikiaXJPrtzCGFzmDnXMlqdLt1nl4/JUqCORkMZglnHFkm703FEWllp4qD8SnP/t2
PPifcW7cOzfIJ+dAcrZwvVcyUVuWDvWYRXDSuUEjotjqG0zOzgi+DYsoQ8iRonn8
DHPwj+S8zpMNP4u6njvcKc35PY+H9W48YjCh+N+JDQ36AQ9hH3142ITAdNpHHCOA
6RcSBTCX+JloP9kjlq1Q8k9lash2+DDsAnWb9QMt8eIlh0sDrO4JVAPwzqsWZxxn
ouRYo4V+Df+WLi0CT7fHN5PM+c6p7QV17YJB6NFVFuOwZHfsErY0sAl/OAPv32Kd
StBE4BJUV9sV00GhpBmFTa/uVIaY2tJVkxMdKtv2ncWZTlIlFKBjS5vIllzp5Idd
WH/sv4wKzl78hfk2Ou1SJsiJkR0cMb10S3bO/2r97MbjcRjN5Dr/gkIt6/Rqpf0V
Ie53BvBQwN7iwzoNCXywfkpkKii6aiSUzqwc0v5/a54EYLqQ/x880imtS0YJimtr
ZTvjU7FlcGdp5axP8nE1iMq2Di6kisEda69dHbGQAAK6Og18A9cpdAPFsLTQRQ+C
rILGVdo/jJx9Zg7PjlWTpYtKAbig02vYR3hNyXpyF9HPfidBWQRMsx/guPemNyoy
ducXo6r/PwHCA/UQJOVpyg//5jMtFBMJYq+wkSVe+dWzbEdTDs7I/4z8L09IOAR2
iycMxhp1VM6dqBI3ayfPsDA2RDQ/z1pZXzUzMRWNGV6ALhx2nmQnazDD+P8OGNa+
QFMYgyCvNAfZHQlvTrxllp5BDCxYTTM8yNj1pkBcF8awLiSRres6TZ+kUUbRBTBB
VD1NqUS4TLQgBKequxeharBlQ705U7Zg0qRYX6qabzA1JG8lBd7ZnxrxRKhk3DxF
8J3EYkpK4VnFRGukZ/ziWLENzin3xZd3SJnjqM2bdcoXxsQqDsbVEWRSin5OERvp
tL9vjIhKr1lFB+qIYDNREMExoH+NGe5QUMxJ/ljkbwrgPhIJLJGRtJJGasdALT6I
i4YAxrVz6z/F6nNdvuhbZC4usWNz1ognA7TVtlyvGI/wllU8khjOvqtqh/nGKGGd
Ko5p2VFrGVzjFSD5wKX4D9ZU4mEl5Qf9KoiZbgENwe3Y2r4iuXR91I2V21hLvMWN
Xr1i8FJle4Q3zB2TKPNOT8pM52bGxGZay3o7Av8EBym5xWni0wBUpWOhvdS2GRLr
Z57umBA/j0kgXh4GjOxDFZNGRHzDE9+Vj3h+EYIGoqgZ4eHdF0ELecM+L8Du6pIT
DcQmE8S6qEMF9mKMWM1YXBJXiX2+I4hz9D/ctgTqB7C3wwWiaOcEYFlSJy+WYV20
wPIkFB3YdxoaufPh7Vw8nOkdXmJl8C9d1MmuCYBw2bK6r5R0f9DzhQ5CQNWniL8h
ZntcWbAwyoCiehGhQcb2kkPilO+56py8sZiM4T0jYNlgG/YOtnuJyTMtz4kdFdIW
3McgVgyY5bJ5NnA7L+jBFutONzScON2kS+b6yrgqy2U81owhDusaunodZf72FeqX
Jrk/0kIHZt+NU98CMxWhz187SQVigcI7RkkRdbuV2GReev4lMk8mzD8Ln6Aj7u31
VWtJ1uKZL2sespBqyn5nUj1BEJUnzjmF8PsTwjGVJxiK/47qOcgSEn2iAC8XWuej
a1tudsNoUrg9znVuvX4mrqn5xonBI25KfxHZlUdUA5FZKEe5b6avQJfTALR20pmb
tcE4N94duMK9EwTCuDz53p4UmYOsm5jhzHT6HiJ1gBx4R8inslr+yBb+zKZk++Ob
vDDwUcP2dqi6DzA0PPYXPP8BSmVvHynKR9N5uhsp6kLC73Hlx8CBW202p8Mu96vv
rrFjCpWldNKM2YtNBmGZdCvqv+rpjZNFYN76+xSnlFsTC+6ez7HGabQT+6sEKkPi
v2AgGkgXSfoQxVH0rr5ZzaR3XtWjNxZmRiGxjcJJakPGaWAKzef1rH6Nb1iDZ6H+
3Ojejv4FOIl17JCGOFVuPhUbVTfg3VEIgfu7sF7DbafCdAxkzY+yiAbJet8Ba8nB
U07mq/4C2z3W9HpqHGBy1Jkk2X7SjbGXpXAaFMSC1HLa49zSaW4poRjg1OD56Lfv
hLoQnRzRVF2vHHL4+uPjJp3iZ3v7UoCedYa7DGvxYPVAL+sa5SE93wgmk+V30+es
4MjEMrEVdUrBzGgnBOjOe0OKFslh3VcmQjke/ZVbkuYk7XvTbIA6f/sdpzrtWhRt
L6XKWIT7qvnIUSMVyat6u0zifUjXUR2wZFc7BvrtNrS8iSw0y7LIjgIk6+S6KR+O
L2Z+Ij3+NTKlg+rA3Mf3zJdObjrBju82/5TrcGFCIsOf6nWjtrl9gqtOjJE2rvC4
cyfyrjjkbI1IFf+koxmgPTQ+BNKGZRcRPbZKHpwbWCx858j0xjMJClLIJpqnUgGP
tIMq7R5cMcVPWvaAe6MdEetMrogLmQ8bOgWFrT+V9TniYcOyP9J1Xdz4Xon6Oc6p
ierphFa9HQ3NY9zldv96pK8+LILW2T7A1/oL69GHP7pA6l3TYGIH/CVOcQW0OheD
X8sNy9qLVxXpiJzG7YOQymMxEEjuaKw+OyG+S36tkRId3K2hhkWljPt+ESg6HRXj
R+6LQCOi1w6wV8q4USmbUslNYaIjHt0wtw5GeLXlrpdOLQ0VSCR4KubqcQRK+RVR
kEWH9+itRwCcFW3LKHcjM6JqCgnDpiCO/m7dXSAkbP8qZEPtIanatIJz2wOPwYme
Z4wE9scUzk2gWyU+BgSKTtE8GX7fqToPdzK2jaDs4tvom6KyxndpL9ClhqmIfVEG
t6iuW/LUNIM0ytVEnGxSGXtWBce3M8VkaskjA1aoYGZr90o7wQfDTuow2nZtnKZT
YiI0GwqvGzrdOCum0fcsLsi5z7iYeOZVAR2a3Ybzb35rVi/1xtxntqjmnn49v/u4
RNLNM20IK4l0Vs1YAi4hTnmcmYSr0yik9NjzFyLNTefskI83LNRDbi+VJlKe7Omx
RvbArXkHNILLDmsFTqJWh/cPobDJR7db/XjztZ5ofdCLcWx8qEvTfhFn7hE/rqhy
jafT5gT7BLeGN0tJ0IR2kQ1NIVF09OSoxflh+pbOJ/okh69Gf4JLcYSCmhS5t33y
SS705KLQtvEjQsSAGU6pudcOjyuf7GlQ2Uy8oWn3eQxJ0eke+ImNgzCYEQtwgzD8
JxyDpKIAszLa3XlRpAt5DuLG3EATqRQTBpBUdvD+qc5pYJVg8QgHfYQRnZiiXyoV
7R6it+6o8FCjWnXv3FxeXIKm7BCGoBCq4R7vMRQl9rKEn+Hrh1VJECYYIDQAUumJ
Zc/ekDeHvVdl7KkmMSwZeMjixMOr4WTpe0VTLoP2Yh3BWvKZGRaBbhC2VzMmnI5m
UhM9Xscin/FrAcLdkc8FJuEM250bX4rzyfRjNrRz0N1FpKZCprtKZnSeM10l1FU2
v8TmvlYkiBfWgfDLk+jAna+iLNKebH58kChKzjaHR1CIIhWAWwLBK+0BvGbcGN0Q
Co51QFmba14+vWHZk79R0dnzEMy9GW7nvzOL/3Avh0bT4HfXUIB4TFQbJldXmFy8
bOFmDmsuSecFbhRDTaEPhwwgGeFbT5lGvpC4ZwT+1VS3LeqmDy5q0eM5MTHJzg+Z
yHH3nYFJUop4jQL7q644nt+1aFrPwMAu6hGlo2YQBG0v/pNmQboke4HMV1xonLeP
g+mpPJIeYxscFDdYfIBQwfeCZ2KYRsc+QSFFi8QuCbx9PXV91MiwpqVrh8CPbtlQ
KWrTRTirw8jVJYAzIuI5eFGtnKCS5Esx2dOwOWlwOqQy6+NCBKURTGXo/bcUdkk3
BuNpc/aqVw/gDHKo+C41RrV5K9w6MLF9CLCcSsOSRxbm/aTb3QtCA6bHZuJZSmj7
H8FR+N4TPV0+AI7Z7hXNVHeb5661M+OkvRooDtbJjlI+2kKn25xHUX6F6kN9LPXQ
zcr/LW4tnUju7xUE0qjGQEY7rP0TaROAXksY/oltKVouSy9V11MxJs56TlH4wej2
/vG97wkaBqKc2W1zT2T0766EX2VW13E9H5XlLNOIIpIWtLiK7E52wbHWC3lW9czL
xMvHAx3mp5158CpPnQ/80r6II316OrAubyyffc12aI9n4hl27GUEGgtqo6GqoYsn
/27n8sw3QUzgHY/a5fxfxHG2CNRnNFQkD5VFCpKE/8321/uJ1QxYbceLRpLMqIHh
YHtQlEcoFt2HyEipV8CiSZvpalXXGelGpHuNsDmra1uIKWnqbeixSK0RY2P85ppO
yQp5pZ9NiDM8/tORhgbPviN5/1DsrbS5HpbYexjhUB7Ub+zpe3GvMh1653otkZWX
JFJ5rQlut5G3eGGI6A8NEETm5qV5cXekm+kaNE2Dc6bWYZW3a7+RKJCQ1/usttzC
OhBuhjmz7KejRoEhkK9XyCR7jmgMEaIsopiInAaw50lLl3MqMkWo0PSkzL53JIPx
vLewg33cvjtMtObsJ24jyK4ysSXcTwL5jGMfDS0VFs6yGsDQVSZLkXp5Vs6Isnyt
NLh7z3A+80AsK/z0gdyeTd1swjLgMDw+s7Ng4Uj1Dv07nt/fVEn4CltUbsNrKe2V
GnUxkhscmUon1CZCpubgGy3lGU4tKxa+VhOPaDPr4Fvcl+CCpDMGB0aEGnYjrNkd
iBu6kZ7YZXRayiivfuvlBum0mgIGsyys0bO75SYuBpdZjTsMbLoWgPpDd8X/2OrK
JruVfe7frB+yP8umq1tlU81L5b0H9G0XJXaHhLp9cIQh07j7RnBUHsfS/nfRVqHZ
vgVrmLRCR2S5Gj6AIDzXM/aamn+NHcjl/F2C0nCoTASFWVE1nvcMOPZpXi+kvy1a
eWQRNOgpqro4vWilvUKsgHzpj+8+uMalVeevOButPFFdIhJ1fYZ5wqm11W/FT0r1
EQGTukG3h8cI7IxNIlh+5j/zy1rulZW9DK00nDJX0mBRtChbrXWEZtXcX1thsGBi
vS3Ie+jRyENbWBx4DaLnU3kn3bLUPrbN/uduSBfPZjL9ZH2cXMGXQERSYZFZI6Ny
Y60iblLDQa8hEU2tnaT7wovI2f/gPLxZAyKtg1yc1fqGGxz6x+LPkdoYsyM4y8PJ
nZDzObPktdIwbGP+1F/kWkw0v+qINSXB8oOMG/8gGpTHYsy2nk1O/OiFvRSc9g+w
x9N/0Ay/m1QAQwd0fuGsnH8NdB9dQUnIkQ+65fd79mNALHJ6msnZqGY8GdqjvzCk
Y8GG8Vhc7FiZRKQVGKYNdAO/LvMjOaDyjzDM98YVJDHEkQRguHAnyfK+Yx386Bu1
p5Q9ppCqi1q5LKsEWmS7bGqDsCah4OVz5P19AuYVVmbn8zpdHHFxOqZ8fDOPOb+v
QU2Pram7ik7QjAkevUFT7u6j3HKw1g4I4ZT9TBsMnPaaHwqFi9zDVu7snxM7ehA4
jY+/c6z06XBgcAb364fGVCICZs7uQ4y7bA1Ke9Hw2Qq7I81u9w0H4Gz1p4S4HNJ2
sRrAfmRDIsGUR6G863hxt3W7Op1nLHadt8HF86HyPX4CcHWoJGXnY4KnOvCtSoSI
Q8jEkhmSNJRz9/m1XxT0RxhU3etNmZCOstqDtBRXym2dkroYcfS4BCMvg7O8Aqmz
JRrcT1qamgqWvoNovDdd6GnLRfyDKNQsWymcQ8XXe0KAMAtLkdiHaoszQ0X3ohZt
D9rDAu06O3bt3JZfVZYej4lUJWWicjUIILCWQKQkV/0c+E9TL96T++wo8tcx63Ae
VPcb2VIedcQxsilvl/zMHiKx9+bK4N4imN8pmJk32quFMs2hIwmnGRYOnGKlpr7H
Io0RNbb2mVN4a899YOS/H8Gg8Lx9TDTkzY4AuzB3XQdVUtA9ELyk4TfmDEOHBG9F
vnCbDW1X6MNx/B0yiEbuoK4COcTNPru8ZKpTgGVGprn2oyzGiFjJmrQeZ+fTHlD6
NfF/fdNWSM1zZm67fbmXnmTeZZxXUOS6vH0ZloRnoeLkFudyU1csa5La3+6ONjcp
qNLpHwahO/BRBOznlyCPIV4ahkBEjrwdmmELBIblWeHeCQ7W2hnKqw0cbD/SH7ux
LWQucrW8LE0kxCWLD4KqOeZ8clqJwLUfALSk84DvfnEfXCu6IHYD6YKN8ecmdilQ
8teNkDcv+5JwEi9Z3sci09Tb0w9IM7vTTayfu7wK9dYHWXf/024bazzALIqFQkGe
P0wZGt9VagLqiGRN1OEjzLXkUmeBVxSaN80nmhfY/tfOcGnqxdsn53dAE/8+td4c
9pE5w6kumm+RV2HGzSGe5fn7hDwjrz2Xi37dw84vEhO+xBZwDD9Y5yJ5cspRcJQ1
QIvz98bm14hG5u1uigD7UAO3oCV9EErmpozk74US7A8Gozy6s/F30VK+C23wY5GH
No1o/3u2k6rLTuzM9tUsB0LcBqpI6w+WymXxx9BwaCtsVUC1AOppyhpyfWHyjb6U
APsgOuT1yn75g5n6cNx3KTu1fzek/F5NDJqVqorSbjHDrEXlH372cuy/twzwc1B7
60bQicyuraWF9gK85ZRsiEtgZ2UdJ3f3cHOTx161Clp0BCPKt+tGmgJ7vrSCRypM
qmw6CeM4a5kqD7wthYzYfgSyINLu3Nr1HhlF8Lge3ueHKC0zWMvmj7y05xdh9DDk
aG0cMBKXA7fkAG2IEF8+N0899Fx1/Z+5+lOboG5O25slygpFB9sXa9qRVZuUBnQa
d2J2Slfvc7+H+nBbFnVYNM3G8XTLFf7Rbn+Eh4pJqM1m3Il+1qc6bFcGqiqGVLsj
oiFl2C6hlZc/SwK7Mg2/BKtb6FhDL9jQ9HkFsRMGPvgLPN1tuorZuOXvjVgsM5Cd
7K8IZVwwz0r2l/ugst+3Z9kZyZLkaMyN85njIbBe17o9hJlT6m72B2TvDhP1aco7
WC/JBpemUN32KeTZ0Ifqwt4BqpXoGqHZpJoW0M5Ha9UJPFzw/M+iKYT7oG5wHLNV
JuDZsFJ0wykluZodJFPtWwtfmLFJgRC9TY9Huvp2LiiEl2yuk3LFw2TiMD4fYaX5
6Yo1KaNmSUXqlIez+vSI03hnpl4TiwK3EPX/0cOu2zojwoaKgq/SUjHFC1mmQWgu
fTuYDKnixFSGxBUeZSyUiewC3qfqiVApyv3qApIVWAt8053yUmuUeuLtD2c0C1Lz
P4BCyFH0JIig6rq12pYE/TOaK8kGQiOC7lotkiYvrsz+xScb0TwAwuSHfuRgYj16
AUvgH9pi0iOyoi3AG9YtBD89xmzHcUvck5R0uchQfo6azYhDzk9z2Q8wX+Ho6wLG
5OCHLmJroNa6qSivinNXXBCgZEfCpWVn5nkyggRFXBJBiR6/kjyMCEB9UOXXOZIP
gZzqj0qJhI8q+QgYfqjKJ7zvdmENa9daujU+iGOmLVcIEJstK82YGt1DD0wq1Vfm
JCUeaMAyPg3mPLChaXYi+XkMLYt5nG6Z3urkncE7geYWqkOB2EI+wiBWyG6JrwDn
sJLR0cabWPkLxP+gsegYt3LVq3XySqAoDhfMGSbwdl7uHpuna3kLRiqkBtKXqYGY
Zg3tWQ9npM3TkaVDoBAQ1Czz3oFISOn7WrURI+XuuYkxIc6JrQo/CEXE8/nfQULt
TtgK4Khl2hK4Y0zHoS1n4X3xtiZRZduWY4/qPUIqxA+NMAjWXtFU0aTgn7fYImgg
G+hGK7Nk8Q5KJ++myI9MpdlE9P1s99b8M3TSZgqnKU9fT3l8Ga02k3PES8RrKzjT
+96/Ma1jpl1hw1I4TKvxHroZIqn8K+P6MpCAqE+/BOA9S5CaSIsvKDAr552HhHFA
WJE7E7psjyZZOIVbVU0ELSpXON+Pwn8OrZiyl9QAow4yTz8yzeltzn0ekfohVjwI
4FGNV99mfUHW8/YbrhzO2dmBsWBFPN1OJ0wlLPCiWylN7KRclEBkTmAayk1SDiC6
TQtKaSopgequ4rucU7d2M9LUWOhz20shEZAm7tXBPnqa0HYQw7CoOSPe3bf0Dncu
joqt/6ogxuJgGIwzFgPcwLGtPU985WQ9Qf8XyO27HD+UzEQdYjm+tALsyyRIn/WN
PuhoqA0cZ6DlP2FaeNQu/UDpn8cYIMmUrHgsa0OOgLL8+KXW9t8eGO+XciAdyg35
XosVSJRhy0GHrbDBznkE+j+L9YxqwKy8w1ZMl+NzFEhr9i/ainG+AoU/u1+6LK+Y
H9+MqIypj6uFhDhY9WaMY1NkS7cIVBeb6Q8z9PbKe1pRBzjA27eehcWxXO28BSdX
6pET9d6CkuWYkYIhuRshewXJuFHzrYPShDifVB7ZNuDAMcesdn+xh/xESg2z030U
GpwAv3YEdafh9EinA+QIGkO7zBxpAQpDilTlMZjeBFcwzM6yPjPEKAONBacpmmtr
jVBjRxvEddZ1VwZKnJaPPjyMjVIUfJXELiRhT2V62t3OAHqJZHLJiAJbwqhiWaAD
L9f+jgIIfDEt47JMvM/pGynvIs0e29HY6ObdrbAYa6pb2h4AkoFmvTu66x1QviBb
O2uO15EHte5ljA7t2djzCoK+nocpEQpUJ6azOKt+FsMEN4kPbSW1B9xBYo3rj63W
VsvqI507KCDEChjNb24Z0dl632rzYaXv0N98z72EGQQ0mVs0e3eSNhLPL70svUFP
3OLJcFTcY0PSr6wQLqOiCFN8CVPsZT0ZXs4gSkXhUikQLnvZEwRDhBnptJ4Mz9pM
QgWYAy+LngwAV4Vg/PtIxRYYygJ1x/fjRJqYQW/Jc782xxH5yLGfDuS2gwtE9Pj3
RkQotwZ7DqjC+xQQgxprcLEr3ayqdO63xOhncXnexMDyue2w3gblhbAmwR/YTg2q
b5ZA/KXS3DEZOtlMeixJ7hcUAH6XV5DiLSYaVjsR+p70xDjBr1c869TNUlYFaTzQ
hDkx5D3FlIDRpRfMqyqHvOdxVpOfy/XmSKgiOtxvEKu/tRfqofxnw/Fyj1CqIaQK
je+TkU1BzYKNrbjIeHeW2/1Je4XUSSfi7zQNWy03fCLzUDNndT/C4ZQSeCZG7yxj
WwgKfulJpEWK0c1ed2jtOW8MwNbYrGuy11mKDUATl/6yl/vmgf3lbJBvSXaXZM1M
n6ynmaHqGjnuNhn3PZrZKtPYnQ3V6pzvrBj/EK4DLYOSRtB2kirboqEe1S+OlsGF
rGZZ2ptyaqH6JIL5GId0Dc1KA8DlmbH+zBvYP/WW4uDdGJ+HQXn1fhDmkWxZtbrJ
tG7oVU1ZczfvD1wpbVKFBH1LRQ45d0JwO7vjE9JigIqNQNQJOTFXLVQxZT0g4bT5
Jlooe06ZDgcr4F+tgy13U0UCSn9wGPVl09ayGQ2WZNvqdbus/8EKPoywdkV+Rf7R
JjgGtbZAbbjZwvQn1Z/LL+/T2mfaowUHYFo6ipyY2YSi4Oz3z037gJ9NGPXTweJl
AYlt9zUp2mUseLXnMo2i7F3x6ZFePLRvg5p4pbTE2DdeX9XzblYWeBxc3eJu/ZXS
NMheVwe0s9S62PD6OPsUcpYT2imm/YKOKwpOK5alla9p2qeq3qBEAjQErSfpr99I
NeZWFBuTdzzwMCqrqklcIrZ1J1FcZWbPv59MJLPRQOIfR+N1kx6KSLU9hZnDprl8
84pX8Ec5QznJ2quNIlA1n0AuGpRfLeaJtltnKXoVW2lpVVkZuIdfeToRFXpUyx07
lizGxvth7ho35+kWbblNX/fJHoE80deOzLfMaDyG/IrGp+kRQsPNCqkWgxxwTqeF
ZoIwT365Qt4JdwJrjan7R9Nj9DBPIuv9QZrA6ZXTc2yZwC7zNg8vdjKhxxGvdSCm
NDsp+V63yv4PjSnPla/qgGQdr2yJ3in0hOEX/gu+lQsVlAB3FUAWhP1NyvguZlXf
rc23RtFo2bOBTYT4PZloYN6kzx+/mIEBvVHGuEDpFBFMFQ9St+3bzM3GxihmTbHi
kJVkm15nCeglI3mAFFDjLboWaE/9QDYA4fgNWBCzO8vRFGfrW5aaKklHVv7BpYjg
wftJWpeMXff5ay5GxG2my+RHa0LSMZAgCJx8Jngp/h0XuHZF1Hx+ygI60LZ+vBd4
bCtaXQwGRo7/uc+pM8RW9DSFLdL42RLRkV9X+VKtBMRXtlNqUOK5cGd5pFxcjEvP
tFfLFRcRks+wLMSHHKTQsNMwcgdnzPvUhYcfBJlcKJgSKhpMxg0XsVWT3JJ3cwoL
IfAy4wegPMbcONj4qf6uSGlgSJ5pmWn5ABlxGxS3eFUA5tabfyAZaT7AvD7kfe2v
WuDoadPxMHZIxEpOV3Y3gzBpZvCUx9VYzfbmRaLtSkgbZkiKtOXEb90PFBZy0vXL
KjybRa9df4I9NiQXzuetKeyYhqEyr/fqZPxC13sR393yeo1SKr+bISNdWgJ2euKM
hye289HUmh4H1hqtwql2xC3RQWu0fXh11T/LQh2csZPes/A/bKF5tZ01SL/XVJ5Z
gBXntVgKptTOEnjwhJVIfJ8wV1PWvnAOKXhMguooValQxWp0JUp/vhxDZGAY7JTU
U8pUPUNLU1u+EFpqQa3S4kqP9835TM1cieOwjhumsNB7ngTZ2KDXViK47aopmtt8
f2NyvJD6mUfZ/eN0axI3fFfORUTSFnFHyLsfc6mZysRnwgAzylHZD1KqOpKG3wcU
snl7oTl5ml7Ux4siBjOGJeCcjGGFWEl+ybdS3UfPMzktLMegWzzOu6opTl3Sk6qS
3ZSmD0MskGlgu6rMa3SPErXq3ekEOx+XitrdPcwN7/yLeiiRz0nuF49rM7bVAprx
ECjBydUh37rpJp5BQYQGgMEzNPzxvhCAFfSCa1gJRWcV5xQcKFgXEnYNHEoNf3Vg
R28u1O40/HRt6j3GbQoRugKDaz1w7xf3mcPQ5l5gZAVWdu+KUjp5ceVbs6H/3e+H
remL0pgskwEpM1KFJ6Np+FlZYKdODXpcRMQZQ3dVN95qPH5pkjWzoSrX9EfUmMNS
bR4E6zlNZkQQCuUyvIqoDrqi0O1Af4QQIxz8yELdD86o6l34ZCC646jAkMtE9Gs1
BJR0NtUn/SQokCRe253zCoqvN0xqItv9ZqEk9md2aI2nJK5P9YcfrxCz2yO5VpFn
h1+Wdgkq/QHVK7Yvv2/lsPt6kuHqIx+HbrSyESl4waAVM4BTWxZdhr1lb0g9oOqJ
IXsM7j/F36Qsz5QkwSbh2xHS2EtpC59sb1h1SupMYtmP/jEFhtGw/DBoYrIFo8iM
KcKKciWd3xfpDndfHdhngAYVLYB7jeF66QaRFNMyBDuHk/vWByI+x/OO4XYE+Kxh
CwCYtna5XfYsi1kPDbtl+5GGniqP9lwiENwuhObKHLO81nlHQNHfbwCDzP1Ka0s4
nUVNKI0rG0jIio5LDStEMfO+iTv/qu9vvvEKt0b4mpliZxsRRNzrK21NAo7prxzA
3CX1M+sJZMVkIk8oOR7pzMrtR2KlGK5+G3SsNYj+bK9iUh7MZnZ7dtxy61Aw3nV2
rtfO9KcsKs+9cbLpggQXM8nR0FCK9CqMPhcF/z7AOtcos7DWy/QenWYe+tIk0izB
8QJ+NL5u3tLtQNmyA7UciHeKIF3ji0sNSsL1yh2cTOC2gOL3kLePflZy6UrYziO1
+rHSyLFk2eVoYXRPneoQ8BqrI5SJDAO/bXP6M/bVVqUeTmALzCOpaC/KIiBvPGnY
8BaN3y92JXf0CbeQgYlvvl9c3aj7QS6vt1dYWoDAFX35KFU+wb74swn6bgQFTll1
mnvlUBydWjNKFKSJlNeiKHvDIWLRnCAGVb/IQeXZz0fcfYBS1V6xQydTtJ80tJIM
Nbn2OewHJ8JlWTTD/5qNFThnuHAIMsHDm7B9Qj2CAnhg1cwhDiyQnRWVj27gc4pM
m+3L7dZ6Am3Rpv6I3tK+K1U670SoHQRvlOgY4Q0pVL18C8N8LJ/OZIxtjLe/FJAe
HnLLvB9+TVJCO7Cbh/xK2wD9Fimt9AeSSQZHjWAEV6mEdpXXm+DgGpES+AVeBuni
ofyTofidEdFs9IngLla6ULaF1MXWW4WpL57AtiTLYNmTrqBeCn5kA2q34aBDOBU1
I/5Sq8mRSSFNw8tyxWUwjY+iR9AjORT9dd6ZxYn8crXTPfzgQFMLLDvxfd4u5X12
r/h5ggU6zuQ1mp8JLHaVXtaTWHqHEQyThBZZv4gxjlO47njNTepN3R3p37rC7VdC
d/8UKKwclv2Q7idsvhhsaO0fk6kIVgc1W6VnhVtyWi89jnPvtAnLPNn9MuuEmt+w
V7VYTvRGoQ+FNPc4ZJObXrLbH+dRMDJNunAPpOFkLBw5vCLddlkw07pu6FPfTM2W
+9fZCkIi/l+9GPktpiLFw1Ztvlcb34W99dcfkK9BZtT3XGAf8XLUClrdMZw68dnv
1RASD0dG8PDxezQwO+CTATD2mPpxFubw93Er9uKVur4WpF/kZ8AbBv0ST/+zFI8m
OhgohaCTJYDg67WRWPGFilKrLrJEeqNUpNIYtUUbdJ76F+qa00+P6RPsh0/mdkm9
PxoE0LXzvxTSByZfzN5qsht1oTYTG8oT5cQnaAG29CAwte7AgBsf4eTOQXOog4uY
W5eEA+ejUQAWsdvxWTFHuavaphyEhs5wIupnM/Ds8iS0QmQjbV8zV5wwNt9s1EuQ
4KYcDxmr0kXVosXIYoeCskc9LOxxvAL9OKajy/ak+7IHMx4eyi726yUw2WRFUjzg
3DzHW8yPmo81xeuFgjKxuyPLxBPT0v3FEQTxqkXlG64hzxAhTHd2dYn1DI9ivfd6
cRc+r1VEGDX0wWlCx/ORz9VsFJMvWBmnZGkU1QPocgu3QnTDVD+Vi8K4fszDpwMp
P3KpFVJVafpujKTdFuGbW+BB7gu6DHNB2KDlwokudwbPNFZx86VnFnKc6U2Y0XUt
v137liIWtIESm55RmIN3Gs4Rh+FVUyeYo4OGwOxV53RJtUMtIKbFoOM7qEG0yArA
gA/5UFuwO6ex2KA//5A2dIikGkTZBfmO/6VrOKhLQfk4e9cSDYS9npPbSqSkCA73
wYwO8qlUJCgsUpy9da9EJnhoGY/CC9ct8GjvZrD92Yew+61Uk+YAiDt5IxAapVed
qYPTPv0M049l0xN9d1JBy3UuRVyGMbOnex7SK8usiuig3itoc8JyHErDEuAKNGb0
p6pdkINoXbcqkbhSM9cTnIRslPN0OHIMl2h19uWzodmRqOQFG+FHAwermOeE42M9
P5A989Gj1jN7Tz1ZxKNnqCvn85afbzALT0GwalvDd9Z/TbyjjYnJGPzZNaiM2UfD
AcGQIKGpTTNrxuDAeQoLKUJGQ/VDlwFZbH224mKjmqNbjVQCp2DvLJq+VJt4Y2Rq
H6mXE5mzxEFdwIWXHzk+4ftoubbFKLzJguijnpz5erktCkN4pwe9IONWXoNhl8cq
1hLtsRZPoowZwD4vashRWWOh1XA8QK8ZT66DoYnYNuyohDw40TkVkoOLF0dC8IKn
BR9AxnrX6ODoVOB51SjpryvMr9fQIp7Su++tj6veO1PTHgXdCSNL+VDdrQPY+axh
HwVgibw0KdWxDk6ZUvvrNHJg4RRpJglU4Pklvzefb8aqk7+4pEqrZ2o2KyyEseTH
1OvAItQ/jqj2nIrWN3HdSheFTpY0voiei2pV0zGcbRs5YpQ81MaFETVL5hm9rFMl
sYeMK6MI81BqhBc6hZeU2XM8stJ4RIeBEkSw2qNUsVI/yRmcAwcCtPVUZ8OxutZC
7oKCbt9PU9a0l6NW1V/hIkhKE/rulzZr4F6FoymCmgj98cUXGVr+Ntkgv/VIYaH/
cfnAEbueqpxwVRuF97p2kFIhWUj1xjRE75LA4JdEAB7nwOy0TigXGqJKasuXyidR
4ZmJdV+0U5YAsu8orb/6Ez1/zQb0N5ad2QUbml7YCsZa/hmV3ryQ+tfsPTDk3Nzq
u6dSCdsUal+V2AxoKYn5M3Lb/JraH3VGhMnOs0q4CGsR/fl+7BO4Rt0zrQVgiCDZ
UjrYpevKpd3L1b+dOumO/o+yZzMpE0pPrnQ5tflTHStJZuMk/75wkVu1jWwgvSVQ
2HVR1j5CShEUHWQQCD+hUigHnCxmrZMdu17SnSrnNF4+HrjMDbWd8NWsyEYMFwn4
EJDFyILiGOrpoBmDh9EWVkDdlZxFRmbl9zWaG8leWDBmE6qMrn6RAyABG29hm3aU
J6vXwtiozmp6YtOP6eXdlQpt5t27nnIzIl9C4kDpiRQwdniwPiuKB5yGC0Y1tGQ8
UyjyABkXdmF1QQo0q+Rsr5JoVZtL7HUvBtuXjVtrvE995pLjcVDWXICk7DobC5rI
cmJ9JPHCbEwi5ejM7mRQ1uITO1O5WfO1Ngygrii+qwX3dulaJFFqeJ9/XTw4il3A
sQ80LGjjOBLBf7YkxvjRlUnGPKm0JXWivIokpNBX1Bb1q58hxhuB6jEGqdF97N46
mCu08SAjPFv2EB9Vb7YCQD/T2aPjnupLn63AOFlF/X6zUFp5Z1GXcGmasIJXlhZ6
qjgBzESYbxHyXarBpb5Cec0NfMNsQRqTC8dms1/o9h+JD/07w10AlQuutXsAq4RI
1aT6XKzjo0qo9TEgajaph469CSyLsRKbNZaXo8P70futr0CAdcgXNeAV12dWASiv
5RTWpPOooLxFS1rxBnEaLZ9Cr3MMfLHjeg7F0oyiRcUPHICwRV0GrJgdBj1R5DOw
2TAANpzndXbpMj4xU1gWpTygc44wkn2x6RvFtwneVyIlCVjd3aSPHlvOdWmwVUSv
mbB9or7L0WxeFe4fK0jy+EMikweeZAebmx39dR22Es2s/zqKXYhm70wXgQE32gPl
JQFc7MJl4czLJXKaXlqrZDkd8ogbF6J3WTfAlxPBf/TLdrRz4ln/63za1+QEGy8J
S8GjyKzkLeInaXqCHuDE8w18mujlXP7B1j3wtceaSkmlyZk+S95ykA2yfK6DBWfZ
8fSTGHacmuQ23E2MJgHLE5lSBfqx4IT9kaPqQedf91K4muLC3opjdm2WPyPNtLsX
4sVoKDh5xisjnW/sREj4uRw5bcXy1whco+rSJXmeqqdtZS0fFJTZyx6RrxGe6OuF
TnQt7xGwOvQgunFKz9n5s7idKxu7S6nNs6DiGZ1PKreQWcYrhXJkJJWO0WC5XRLH
Rx0bUyXpIZS7iUbARsXj6zfFmZoMJV9uj89KZOWOqEjpqpSkvznDQUga6OTNf7yE
s6+PI0bXQzuWOzZWYCh2AKhRiDwrxDnisrDV4L2s0/4ZiRjo8c7S2rjxnwS899kY
11xE5Cw3P95/8PEiZbrmVqMqv1E50fqMnK5iA7Gm369WgllMmnnpbwfN+aVNiZNv
sprAGgr+b4yo6BaDhRNz6NEGqGCpToVZ5WYzjmjUoubYOIZ/R4WIjBihBX8VDeGC
2P1oKsTKio2n/tSb9TBJgibqLm43AuKRsgywyuJU0wP6JlAGDtb1KHzqMLCPgz68
m9rwZlqLKB7VIb0sxzsX1L6Jbi7VlHDwpm2GM4mfsrUxz8QBQDERd8XxfWArxbh8
+CJlZG0kP0NnSFdAu2RlFMFjJmnqh4QhXjkCQDzpoEWa1/vEYCIE6Al1Zgzptzcl
nrNFljZjsHsOgOIuzk4I3+aDWM9edcRFnXQv0fiPcSZnPJ6qMRsInYZrHUGepfC5
fPgf0ooBhQ0zosuOcM2Eq9AsYkML13TlCWYm4/HcSB7mq+rv9rErxjRTG5XbOu70
YgmNZ08lKCbDtfZUTNk7EsFHNcv81jSbvsNPujpGyfzDmengSdP7MopjYzmvgE83
rFzd56hSnDgc0h4P7hwEjM1rSZx2eW95xw6H+AS+KOsLsuYN+XiiYvVlm0fI4jgH
YfwvroE9ASPSUnhoRAPYF91FQo+FbBjIKCtyZQ7Ym+h8RyfecYFE5ZqcD+CbnaEI
EEoNY1f+TLpafJW7v84Od06gGJiQbrt6XEwpt1ZZrjhsdCNyZkf4RbnPfeO5250x
vsy+XGbfsgVQDZZlH/9hFVMwTZSCyUQN1q24yfNtzvA3doDTn2OFwV6SPP8K4F8i
ttMg3vzfFD82GvKyzOy7Gt4ppg8UMf55jS5fd9rMY1M9yi0fJN90yXHzDU+/7xuq
bdWzEVRgPVTwH08urAEnOLsReC/abNXFK/HXjo6Wmp9qp43+H4LA0xlkByNQvFkx
voCSx0BUpN1JmXuEv4eu8C2L4agOtaNtG2ZBFMAr+Meio1FPmFm7K96P3+pfF603
8Q/ryDNOc5g51y9dnxrSM7yHvBov9xPLwkBZmHRNPvgKX14NkNXww4omLlQNEzqD
6BWg0SMboMLifQEh2lv9rnITym+jqEOkPSX7ufU6mNk2mtoK71gYIUCZOW5GzMsQ
V1lHmMSMr7wWynzdRXOP5Mnlk46piY88rolkjo4llNwAPHrfkOR1K3rt/svYlfbe
GM+tTACTyaikm5MnSFafniyURM2fWxAN/6Te3UasC/1WcThTM5d4An50Y+N9mfBL
cs0qlo5GUJ/i7qK1ImhNrlZbCuKRfomtc+qTF31ONuT3fmepHLRnX5H6U7KD8IqX
oW9ZTa2x7Dh9vvbiG9ovJNtLUPPns7zb+eJMHy+tSFmStpu+ICDELN2l0jIEOGtv
oa1mydy6MJ7/QxIzyDqp5sFaTY3EiiWSF+4sV+zz5l8YycHUyi874loDTuq1KHYt
iacMCnv8U1oQ3gPnNRSRF0fZ24Oxz+Ncp9CXooPO55nTjiPv3gacAr7AWT0xBPr7
SxebeTOHdusNAuxY4wy+YDIEZ03R26CUO2Lp0s4YbNTaALySBrpwx/2RCmCFxZtg
IeHm5YlYHZZAV8FxZosxBoOydnMrwZhpBOlq7U96D6g7QBNYDotgbUxVNCjD9vco
sU1MH0GEqRJiG8jLbU4bx1vgsEzfM9L7lmbyql0Mw5WesHqjkK+a9ywEmoZi751N
GU3YUpIURkYqJ6A+vpDy+Gg4Cj6o+j4iXIACNqCFo7F1KYBts+Z/l1Qydphy9fya
n61o62z0F1yvauvEanuylWwr1Mt7jxHGsRmKXhNIQ9lQaOxDa0apFI0QXAgEbfH7
6trmLGp9d331beknq/jRe4aHXuVRgKC2P93e2kOHap0059k00SymM7RGoKEgjlr3
mlzPkTuR0y/YGWqsgrscNSfmnCs5Cq9pQJE/wiONxGsJeh0z8EhnEgwthHCkX2Ln
bALVCkZP6ELZjuMrcXMiK3uoDRwT4Oc4DNEPrW2ptzBqQ/FljgDFrT92y0ig9U6c
HUznWIwX3ixq93sJphOmVbVh6BSfUatpeB9lXsxZvEvouw8cQqp6RDu6yWXs7U7y
d3Bh+Z+r1ijNffv35T0Mrhp5A4ajiCzCnfv+AvJxkMNRkyICUYXEgK22HcBL6kSt
7PzqwWq4C1P7bMpPqmYVdEI6SkBIsf52w4B6CnWi+n1DJ/NohO1f0p01Kl2IgCff
8lrIWOAv7NHQRnoXVvYaVzkCpxntffow99e+ftRCEBqK7dn9yshmRHNIKiRmepHj
sYjht7otxN2sNhaNvmS/Mp0912lFbJxn4l625CCGtLOhcqs2ER68af/EbV5O1Lze
TKpgFgRX5QrcHXzKOlAjnPJMAz31z8o1z/ueVFrs6u6ygte99G7RIvx5kg0ydATU
5x7DTivEnN9DqOtYgjg3QLs2bmCmzavUveof9Y+EVPVrxgrkyvG2ojLIc10jC1lE
2R9i7KAlJHdVgWuVwVBehehuqpO6EUZjNKOAMatnv7na3MRax02adp6K6pNUr3Uj
w6xkNZZdsp7jbK4usv7kpKH5VbHajs9D/pov9kmBvL51UQSP3rn+UumJu2xWHKlx
yLYvNuNEXK6gMIWnYV6UtTO1c+wfmxfQIsdpJxwIon7XnRfa6WB7rQfio2VYKFkv
bcKBVmW9k++9y9fFLgBCfDEEyfnb7jphjpmmXbiXhozdZikd89LeiXxiQiuR8WI9
OaWRPsbhrPwFNHCrPEQw0dSTY7H+P+oJJVjIY4QOetb8VRx/XtkVq1FGi5IoukVP
/o6PhFPwYeJOj1KWc55OwOG6NQXUZhdSermGFKWP4uNm4FyZWi2Yk6Yx99qYbQCP
sBACpQPMR6B2YRS7PPIrix+iJB2motZgTkeSz23Fed0qNUI+7BLwJFaDiwMdVeDn
sase+pHoYv/qAcdC6T/KbsjW+w6N4Zh7El1l2qvpJu9/jBr5EvEvmd585FLW0O+I
Hs8adXxNIbd+BlWDZ9kgNZ3J6Fq5T9OH37i4v2YZmr3AaA0AN/72BpIl5ItnVlli
KMLIKngd43Lo/GubP7XqJ5slxLdjmyJxz0zI9Y3YAmEDaT+VI9/YuIbkRhOtTu9n
K0/RSbAQbAaheO95BTHieyTA4fpVhzyaEHCOH9mmtC1cpO+ai+Ftn2rrkjF5UaOl
BRGAT5V8/i7GJPFGETEbE7j2ef8r7oCetQis5pIt9lji/6idaKag5bKKPAsR2sI8
Ur852taVnP5+6vvu5/1gRI9QJSzzEyrqpxdc1JtE9O/m6q3onta84/pS2X7yY/PL
q0gnC3x9vfW2ZQrfvy4YcgmtlAHafVVS7eKCIs3qwtsEpgU3lsS9iJeWdIq4GRJG
JWWC31KnfwTrkfmQJO/sbzRs1fGSQTvLeb+efdahQR+rJ+LNnVauqjUMZm2sWmj3
2QbjsfPkUEIjkZW0k0aLbfUAlBg2ukFcJoHrJJLx1eoacKkw+aUbomZB7n5fD0tL
dg7zT3AMMv9eEulnd3R2Albw4uYk6PMdaCMlSvki+xS64CkZpNQRmBq/W7gNvbSk
85hjo+IQY0VbyKTWvzwRcRCtatxNsEHD80KioF8WPIt8Kw4tie6eBvZOMi/8ejbT
d0cqmU8i8RLUAesvWAn40ZivVDOkgSnQD7+Lp0Qfibazq6iPKfaIwpvCKA31F5Sq
hFYenq/+MWNuVG5eSy+1j4mkEB/ziAR2tjsCWQljAJI2HtwN197j7rOrhKQoK2tm
jcj5PO4KY3hQlAHoJeqbiMZWmmT61L5RZBpLZOBaFb940tAtUvhUVH9Bnp01Y69S
8XSg0QWSPz/G5snB0sMgRLfYp6dgWswpjGg00n0V+4DFs39PK3yVmUbQuXuCMjxD
uAS2RjtIG6wcoyq7ApeQs8L4lpS/qhkABQ8jbdsfQVtqGSrB3O9Ks0NEFog3Vjl1
I4sXNozpSaXpw5s3iuL0khC7DIGIFxfdnEtJ68JtL5rhFHb2Tq+IQS0c8UoQ6ESk
3rmv331bNAQXUvUVYqVfwHXtx0m8Wy1Rq3KN/ox+c0eHAHdYW/id9ezSdJ8QctAT
TBx+Br5xvXan++jKBUec55w5LE+4KGqzn0YrXYH7TPtaprFenZu60SAeNtzcHv04
RII6TXaFAeH6n11adJMAP9gn8FkpWsUSgcrRynBZYUSxl5e1hcnPP1BjEbw43ZRI
ozCLk99t2/bRoyi6tCNLvjredA6T/Bcb/FgP3gQoc86JX4DGjl0DgnGPFSTZ/QkB
DA4O8ED12wnxuS9xE7df8qYTCtMiWJ3Q7qohTcBNLIwJjwwnEKT1stfi+u1iRqHq
XKSn0LtZRsGgypHK+u2Nq3wjDoNkn79+KBvDhcr6Me5GANANXPX4x85VKgvoNQ4h
T8AeU8RYl43oPvc1WluuJXxX7axUxTwsT75Ep7z7Oi5Flld6WtfyPjYQ5mQLdzGH
90A5AC+zEszt27yBgSeaaCfHazryFduMRAjeJSV50W0IWFfV8XoqlvAHLA1I9O4T
/iVm8cagFIUUMjUVQnIDYW001dwrn9TvI8UYiH3NPcqgHN4HDfKkpcGk9iNDNPvk
Muhci1+Hs8lEy0Ma1mkc89ZVedY4voccv4y+nhoVvDytnbS0SxVYEOZFPtV77csF
+fgLeGe9MpHau934Sj/By1VYsb3pwuZcUio3UGJVnfc1hb7MV9RUbQa0kfk/UwQq
rLmkLEPlU7kKwBfjJRRsrJ/3/sOuETYveLZ6Vz3g4vq1vCT2bsgvC90kSgfq+VJt
hJpUCd3pOLgsXKdgKKjnp0giArYPf4Udfn2C6zJQmtI+m1aiGUq0U5eka7aczmD8
7xGwHVVr0a0UB/4ahSSW+uJIb+LOGl3FUccN8/Gf6s2xqYkya3w8Qsg8lt2fs83Q
U9pbQxJNMPFA/YFsJySG1tltxYZXt3V/afxxBp1GYAWRYvGHuwCZdd0bGiXfuZZy
QMHq2Ybzv58pIrBLbHyZC3DX15bR31sHCrlClfyVm5FEqW5F4nYGugo/r6WI0aT7
fb11nUjKid5cZUb/5zganKhLSz254xkIkyImwch3EaitIlKGondcYah+PrDgmO29
k/D42BAtQ4KoRsI/sckT1iJ2ZTJ3wZWjvrChgrpt51T09H5m6mAJbRGQmHg01LLQ
4x+VDlujhE2/q0obgZYjNnNtlEIwp7l5X6G1YljF4dU00HJf7d8c/n6NaCWFeSaj
BvdXRzerl013/cYVPFwXNyAMAk8pFupr/E351w5tzMX60uh5MWjeXTGfNS4K4Iwm
23HR+OBQhyF91Lqubc8k8hT3Pfcr/0LCe1gTv4+cNTbOweqR8ZwZXsjEl32OxxRd
LL5JP59SBIsSSS1NIq04OP2b4X73v6rD5SaHzsDWrNGkgk7XxlBTck24989Qm/w9
uWIgKr5B0xRPf7UkIfPLQfAGtF2KfW68gNYOHFL7g2pe9vDC66ciXogqhGmfpwc2
KP8aHMDDuefLE9uVNsFp4Vm8s5JmrqPwhOopJior6gaiCLjPKtAXxVhFKP/NPKqs
DIW32zbkn2BmCk/YvBz265Ue2yEuotrFHVuPdUBHqJlJ4DXwkDfDgbnno5Bij9au
92P5Vk4NROwC0x2sFEHB0c/Ebf2UrrRUbY3VM2hNYpxTT0W9epIz4RJMUMwrRbvH
yun2ZKGBrB6yf72PMAZ3RqOS4QezTglbNzi7xb5hM8t0FcPE8TVg7G4N8K2QUKPk
7+jM9Q3RUh6JT2LXnT+aXKkQcuB/ppIwQEIw/6wma/b/0KZ1libk+5duzF5BF/Zi
B1QAGu8QkXRALkHnTeYIwfS60yIT4paXPq4mfZkjaTGiXHYkCJk+OoB3FjfzXT7v
8Nf8ZshuMeQbHx0VcnVUuBSjYc6sA7LNGrbC/QlmfG6k15TJCazmyOb81itK/iEU
z+IGU8GbuBmVM5jfIRw75DMFHe2IW5JqefkSpuZ33mngelwVdhMuJFb5geGAc8+C
r7WVUkxe5+E+x1o+JKq4Qm0c9WcV/EnWRQwjeQO3CZCl1xvvd6zJDbvXjUQgpUt0
p3hLwvjbKRd4Xq2BQzS/nuu5KSdOKGVz9j8BOUZtftP+ngNT3tGrdrV1TETZRtu8
CjgkFpgHSXof8qPCSnldJgsUl7sEwI5T3SqvIBGCkQdvw7RUDbbmYKYLXtHPSVbg
7T0j7IpmCjgoPG/mrBsW0lMDVP1WiH8SSsCPZdP6eKDIbuv5VmTQEJ+tYTfv0gBz
RxScrGdLaMeIdKA0mhJ7Py6UB4VVrGRJH4Xj2yB3uXtTBvETC3uZ7/vuQnSJxUYx
czx1Zjte303wVe6xeOSIY3mkpcdGTEVkb5JUHa39Isugr6J3kTaQ55Rw7fU/9pv1
6wrcD5FfoOMVK04BLm4c/+l1graErXE15mV6gzwQKcq2w74S17byhNDPLP+TviO5
H5hkmUi1MXqNhbMjAm0QuFYndjRcSrjXyxA0ZzRpszosP0dZ0apctszl4w+IfnUD
PIwfHUigAuMbhj3nZd5BtYZNlHzD/7Kj3hpi3+Z9WpAqJJrwzqSN91fu7leGyQFX
znPlOr6Soq36BuXDlb4r+ZEABBaUmACmIjmRmTffJzFpp8lhHUgWU+2we/cZgz6N
yNxX6ck0JVtqa9jVCfXOrdbOoTLrgH2hVwY0dWYA3BE/SBTGtyuPY+umeQPa9HPP
8DgsdT229hNYD1gQzwD8ibnxhL3pUQ8L5ZILuIgKmTRk1wvH5+OAAyV6TVYAOeS8
K7YykgMy1nkei+A4S1iFmtBVFQY1AxNYOMrmN9gNGOXwqlEbFxABGxiALxxgYdTo
AyYv+ytA6aMdY9Fl5/uBTGjV2Z1mKt/9hBq+rL3pjVd+MseL+rdqVjGcFfGzlvP6
FBoV15awRTU3LZscZd+pFQusPELMX0J8aSB4xaM9EBarH5E+1NvrL8zGo8DNa+gt
Y+R+JrqRjHZhKOqpG4mrVF1m5Qxhc+y02q9F0Mk1ru7DMj+v7yWJVJnjQzxY2OHf
pA4VDGaJftzP5WrQ80+s9TWREmOs6v2t24Hpj50M71gIqO5Z3rIVjPhpLEDT35AE
cBB2+zvBuxSrHvf+hHN/XbDV/D/GYJpfmNvz1Ob9Cwe1yGRFYTrlwbLdn0iSbF0k
/yF8+yH2G+YgBIGvNV/cKooSCqydMpyCLOQr89AetOYANVmD4NnSoMC/n59gmZpc
T3OFAW4q8ncZODajIi3PmzLjDdorXFmF/HiXbKOTfr+aEGusNZ6Mdnv1HIe44wS6
Jh+7C0oRyMggetNQkdzEoeSnN9MGCPmpA/odIdYpaBzbC7NqbseXOrhJh8Fx9Nnc
23IIvrJE03eeuuYxnTSzp70ezwImMRBd7A6vyY6GmSVNv3SmarsPKYGb4wB9f3bW
/23reEmjJUlykpngOWYxE+CNHoh5aIPKs1GIcT0czD+R5UN+5lwUU5NlV1kKNemK
oYwzbCQDaNg1BmGm6uhZVquk+zST5ufO0KnVyYQvdVEu0NtdS+INq/P0jWrrqEfb
w+cEqUFEiErh2c2nilE8nfXykSD5mrF9Zd0c09dXrC/BzR177JUMqhMLyLSMYHFM
K+AE+GM/Nopl7ho3VK5mDNwb3pvviJOJ+I4Xwdd/mJUQEup59m1yzI/CQVrZC5B8
OgtFuOtGQEhYR0esBEIP8MAV6rBGHUgQFBwlqPQpwSMJU4D+aMicqNMTcus5jYhe
It8pgJh3ChuUPf3C/MMrU3rHkrfXeywcHu4Wi+xbUEbmV9zjPUHKkFHz1nY84s/i
3BXLqO8Fi4fw94G1rz3j4MoaERnxpwihys3Vnx6ASHm2Gb/YA1jrAXQPiW+tBN5j
+BORA2g09IwHP2BI32Nj0I6kcX6lJ5Wd/t8icSbuKk4nUi77AnKGGG8xdYCCuKtf
+OvRQazfQkL1tYErUrENIMnlHC1n6tBh/2OBgI2VIKb+nKY2iRPq6XuB2fUmuHnf
Du4bqHLS7AfbjaEs+N5FQbhS3JNrunn7gmHqlW/pTnkxJJBrtMwEMx0WZDtgbyud
moSk3gFRQFO3lUaYnhagXWraIF1k6Ew+hU4tDmIkWZSU3pawmX1FMepmPtvpecT0
APfPHi4Ie1rp4whhkPnAfqxyl0XCTi5IsBegUKrjjw81ymn1fAAICxI9LrmV49Dd
xV5iRuKP9ru32yom6NgilBdWle9LMClmoISnnTxuyi7uYEIpG8OXWWMNwhYxOx2m
bDovke0HtMjmlVH1ZutDn9zwuEnM+la2SUJHp4/JbGmJzy4OnhpyN7zaAKHEtjtd
tUBVKOXmmt3WkDSl3s5pUvohZ8WxfNZ/rAx+Ofq8Bd/AERn5Ai2rNdF808PtBiIX
ZN7K/BESNttv9tL2JEdVQpeU9l8EGeH2QFB+Wk0FrUz0xYr1/xJP8I3haurvzO1O
Hiz5kTHuVNShyius/+voSESgGVtEWbHAlPOsvIk09Ui1fwfcKEe+mWze9yxeq5Ow
sD7QYg3CY88BbN7CU9qD/egTtoAzOizY2voY4J4KlEeJKrOV8m5iJWH5/Jhyvot1
C2AArTH6p/hekmSR+idCeysPvPVn1ZtWo+rOcGSdzed6+O90Zt9gBmEv8Sy48jH6
CThtbuFK4qbpCcDHeKoR2aybbmiC7OT4AtGgdOXLy5YR8wZKgqq60asdXGmhnKMT
tXhDzovKOeuISt1O3as9wxCAd3Z2WKyHxaYK7Jzlzjpa/MJNXLFde/EGh0sv/Ksq
wdsbH1+COmD5LgM0BHhZWARgLAj3NEKCf/40LZHBPzaoYLv/ow6plJb7w9ttBPtQ
EVnZb+QSLn9xBRJ1k2UWUi4/710TQqpjXZ55Xalw3ZCjU9Nz/vvKvL0yINAQGHCh
FsAD/KD5HYnE8MRBi/hFAucZh9ho6zE+U4BZ2CvYGQTNA6WtyM8Zu0aIlH9V15aA
jZRaHkg5+6S6dOCAOrJyR3fdg9OVytMboX4W30vgsLOhEkbPKLNLDFUNhS6rGQ5K
vGJGYyVIiYQPaIyyut5ZODqXpbZTR7GS3YoPk4g379kyELvRdkIdGaLb6p67uCut
ib8tSacmNGNY0xJhWZ1Jpg7wuIi3Ag61/jopJG120xfAYdEWMyNmmyERmt86h0ch
OPs/zXkDLIjz6whY2Qy9SnOcC99D0u1qBkJhx7vSE4xHglEB/VwC2c5nbGE7tczE
hsprn/BaIFgZgw5XQH/4N/lsQ3aOXqawihE08aMViyeWcI+x1RPbUxNjCGVWRALi
yj7fcPw4rytLeaQARK7WkFKF8+Q05MmlLOY1O45xbcatbMh9rAjW82VhSvFnbggh
cuWmDKqlIZXo3Fn+oDMA3ICBNhzo+qTolVsLeUX63xnR3sZvuq+MtOBHqAAZgKrH
ib5Vun5oNv2hM+sVuCBTIgnGND4RZyfpm+1x+Xqi1wISKCCh65tvlwc3XW0BeQP+
RwvAD+12kRsISVhRT3U31u3CPFG11OGT3/vpgy6lvRslI5udWD8GsTl1v6xS1FjD
imnVXOdX32tbPM1oBiLuq/LoM/N4CTQ/UoCL5Ent+xkNFeQ5ci+WvWLkmMz7h2mL
mhGVoVagb0ra9VjCXDdKGWUiWxwBcTDr5cdTb8ok1gwBKkuP6gpOW0XKdEjq32CV
+Svby39yP1Q3oVKM9Zobonpi8hY1RN29Hs8sdArMO055QgSFIW5TtEEIMvl9ywXY
yU54F2HpZoAqBYqTKeSd89B1vl3odygB9OBLiuR5ZHok0zGjEr9U7/ExZDkZ9HzO
/iRnhHtuRwzh5JX9TjdfHfzEn7Af4rjPOrirUZ1wQt5GRPOkLzWkYMnRdnGI9b+p
wF3O1OnAeYVfXCuso1viihHs9YVrm7Cv0RlppY8vaUKvvtnU0L/4CwkdQsnNEgxk
djko9F4lzbIwRQt/ENuCnaC6WYa2Rt/a7q8MaSLiV+22ivveRm/QDqrbv9I0kgtJ
hgbvhypjgxiJF3tCn6ki9BJQ1gqvvGq4E5ibLYbK47Us4HtVonjG6e795m4Bwx0e
HOjaF+V/f5pR1xrpevniPzeWDUrG3c2jn+fUYWQCJe/S+i41H3QcVE5ySb2yDiRs
JbkFcEsfHhWWHTvJNLioFtQi1QpklpeVyz1sT+951cHas0Af5p6/NK5BJ8AGacCZ
FBYUe3tNWXzgyebmV3xg7uop04I9RgWtYqQymbOZ25xaLxYGUMZn6HcP0AxVBsJ2
aGkmtFjyNeaalKJwxAG5VpOpXICJUZrYxIiDT7VCWEGKojGcFVq6SyPsW2kJIp23
gpmEsFywSt4VjCzSFkR/rgRacHIBSrkxB2cO8hwq9eaZkGDZJR7ix0nJ1b1fcboN
dYXp1DYXiWNya6RbCEqRBBrApiPNlmDqUYVMuDnCCwBD07sZ2wzvBdeCT/VL+ApC
u81t3scp+OnH9klm47zbNkvZXKf0haEGgBqGTkLhZD7fwAmJQk7PYRB0Xq9vJ4Tm
5PO9OYmHmsH0tY/HHbHViXThY4xRpmJQdzeWYOuHKIN1ZW9QDOXd4fU4YlAgQRr4
edTLWo8O84ctlNUhosrP7OVy3fyuZ4SKy41l6ZZj7SPBZoLKEMpgGt9Vjmaj98Uh
s/jWqWw6D5zF8+Yjo4vUwwwK80y6u5Mjemg4+hXdoD1OZrf1lDPGL3xoke/B3AEn
R9ws6UwZ9X9fnYIvkEcPkVPNHlC5sklZfIvbqFBMSErGF7zsjLxIDwGBNwy80qMY
Mq+HAorIkOHXNd+LRU0sYerlDkMu7vZVpJog0K1PutZf+1UZo0wJ9v7OLiltgV2I
cePzQHbBqNXcMY+UeCzWh5OOzXy1Ai+c82nEOsn2qFpPyfVyiXrkb/aahkcHa0T3
uWFvGm0dzewMnmOuSJcUzghCiA0jjWBoH34SLVYJ8MZX/+Up4bKA12b07dpNQHqF
m/ljy5Wx9jfKrKBfd6SnOclFRt+iPmpmmE/l/HOTQWq4VwPTnbT66Z/TjGDX+ueE
kCD+HzLNjpKyD9+YObtcTjZIdsjtywUOk2fJnrsNjiFLj/5lIb9vxUJ9neZMwDvA
4jMcKgsvOgs8/33TQZpqg20s9sUoXdUikBzXVow4M8i1TuK3g+141/gkd+y+gQm5
qr44t/RumaRjsJ7PfZs1scfuNSdvbM46oD2ALbTwiy2TbIJdGgyW+fU8gEugFqpg
Tr9CVGYVv8n4BmOCYOStwBcxZauIsuCexsX1OeTCgSdo0t+2DTMvH9/JrR96apfC
qCnoqpqqzyAoKIz8ZYgYh0HnzehLsd0uA6yMSw1cKFSUBFrpHdmw+YTn9XmpOCOc
qZ41K4vkOOix3/44bm1COl5ptMDR8i0TFX96vX6E9sojksDgvDjkigGboAx3O7Ek
0x7PxFvfhGrTCNAYTm1Z6EiEpHsTtPxKzJjOkbsaQnPhKov5w32rPKQUkh+oKRH2
wgHFeqNR8oEuVNtp1Mm+X5b8gwnP/lc56xbdD92D280cBz9iwX97hP93dlNYvmug
DZ4UolwXRUVfsYYD/gYfhu4gMEdIAXKX/Hv/ajm1jRNHCADDanIF+5ZSaUZY1XRY
mtzVrG9dz+bsyMEbZBUnEzgPY41m7rwLrjExn9SluRuhzhd5CX6DA1ybn+cgBr2b
napw7q4W3KtMMFa6tZHkG8Sd06cLUrjf7mMsxEcwUhi1qjCn3dsdahWBZQp2owx/
I8mZxJKC1/IANfHEzpx+dxO7HDNubURxJp3OjgChgI8NkDtjoyFjGgYj28zIvIEN
cF7Koy8jJ7Tj3yM3gEZuD5JsQRH9OW2vldjZoXjIC9Ww5x01saNG/4fbDJsOAROn
k/HXzOc9s5DqzCagzRlyAnWSHD1xMEF1f4QDtvV8S1dKqvnHI5saFExTgQ57e6pa
yDCz75J2IGbulKFDuqCN8ulflXW/ogXk2+XlQUgTBLhUwIVb3UA8cDKZ6HA6Pl0e
8fbtVNgE++Be+qlxhAmAy5IVFcq02k8arz+T7cyd/S8KVjw9sAgMgYWUm40n+bWF
JgjMN8wnjJUz46sdNvLgyhlss0ke0f4HE21nRDmq0SwcfyVCZ+r3v0SS4QMIFsfd
573h48oA3VXfJe8gf4pGXtFz+cG69vDBTIqFdpXp3qshmWCC9bw+kcEAkSp5EOz4
r8tlTsR0sdJBm6T5FByZ59GY8WQqhkB27+0tN3Ca9YiBsZOjApMCUvuMs9troEJ4
sObbnBbFVbYQmc0MoEcZEyeT8VB0xg50j9ysXringCMqQcKFD29SxSdV0FEWGW6Z
VdJoKs1hB91nZS6xOK2hewFvLtMwKy0WDbmJ07TlXw20KhRi3jTtXv7DBrzwUu0l
w9y3EjrodSIs6sOoabP0tECja6bm7elnaOTb6KRdqdp2SUSisGEtnyyHepkwMd+n
WKfCThkGxnu6CR0YSG5s0gNCt3+rVs0weWZ5a+zO0V6gyKaXbrVX5mfH/PkwaOXe
e21m++9/ea8vVsY2bxhxTpMraWJvtVG9mrx391hW/j0pFDT5V4F34808cGTjDTiE
JDVM0xgeXVa2Ba0TwKUKerupdHZclun/tXEBqU6BtZQsaLRlFovobsXA8OLDOCWg
d3QJjCt5omlYVQmw1T4b3q1zadMxJmK+cSHRklY/mPJkcd8t16/ybRMeA587dZiA
pjiPKxlz8aiorS24y48nwwCGtiVCSVb2g4LWbUBWWSo1Ep/m3LyQQcFhQlrU3iBr
rtrVAmJ6nmGJ/ZhrZVztv2NpXRWGifwTRioDWi2bC/c79oz6xYwItiQ3J2rpMj+w
DfvptodoQ/ozrPTijXcN95cxizhQi5S435gFg9w5/xbAX2zvr/+vSh7uIxhRjOk7
TT6x9WFoHWrLnip1YeGWEtgzhKk+xwYBR4OgHkSMsZDiAgTamE7ORkP88rSzQen4
prL2Oix9hgrSO+QV8yrI2VEmHW1vhjPelWDZVaqr9uTBGEqlkkiuRZF2lvIlXncq
ngZBbNiORN/qg8OcESgUKvn7hxbp2TIgQobVqRWQ7uqmj8f230nqtT+WddIg8Ikg
ourOWL9xP3cLXV10jOCQWOY2azbzwfpzoi4+raERn91u88cYmAxvFsCYFh3DXiB0
e41erl+N46IU7+a1wRaz2d7iJQAdv2bP04DVPrXd/qAa8fPkNb5NP7IwUkV72rV4
hW0gcOmVdSOZB1Fa+j2lkBnOj2FM2xbg/yfJZ28C1n3Vm8XIh0VtSuq0HY6sJhlv
k7SZc1sM7nZhkvpaGthjExnhLB0ZpoVufolGeteNdhcC60lF+SX2QsuYSnjpss17
W4iRilbA7ZZiIl4zFApumbrOy4Wihtr57HxxIFDjoGDN2LW30yHJfW3dIpr8Uiz8
SAma6EMKr+F0PRaQlOCGGVGrQp1++hBeWMXBs+T/pkNd4Moz8ZY5MlXX1dDYKuHq
Mq53drClsYHGeIqHPIHtzhJWcHzzsoGqvDI05fR4nakBpWfjSkOp53rHUkOnNiWS
Dc+XUS6pjiVRkn9LpcpHNEr1WDRURCcYBgNe7hbBuFUwCSkVyaE/JtNhzQiJgGhT
3ZOzXXYi7u4oTOsNlLvJmpWEVXyo4NPoFQhykKTu8G5hanUWYfi0jXyqo4eprma5
PFk2ZqhLTMQBCuZ/kJuaLrmMILCf+jbqvkM/KBghNsL5AN3OBC8KxipLTG/ESLgu
ZXBbNB50mxosMyTCwrHa4pRZC3JRFyvcoQLTtL6iNF3Trb1CNiU0MmIn9+iWrprP
EX238r4DM3dcUIwOl6npNW5T+AWyfO0aFc16yMH1dcXYNDDLw/gPH8YLa1jIj93i
G0uZaz91jaCLIT0UKIl8f3OhwfnLH85xea0G/h8v9LWV9ge/CD0Zp3CMiOpkjsfo
ofgL/XQrJJHc5iZptofxuXtAz8AUiPx14W0S67VYIdenu5lTZ6aHrI/F/ORqsXmZ
ui1R9AaPuZo0WFYKuxF9RMjX3RACkI7EPjwNw0driVc7dg5oV+gEKUEyMsrFTYMY
DdLnAUxjX+1gQDdVGI0xQRK1KSmCKOneNLKXAo/JyMOhHkighi4SGQ3ZlsRHQ9cs
jOnzVZ0TmeP+Vtt8kg31H+zfkzoSZyQQXOQ0cWppMS0jcdbwDStEHsoSl/ud1VtO
vFFKFvmCX5foy7dlLMk5Z4IlGA+gybqIFJzaxt2rcwLgcjbL5u96WMIBKRvKaSyB
1Mp1/CisFE3QQGxuU7keG8HDvvTgsROpNiFPDNKlBtPF1SHgEHy9M9rFollsRmjW
HARP6mzplYadFS7r3I8Rw8zInA9xPJJZ9xySQ4dMC5EvFOvlURnUNX/PwSlMZq46
P50XBBZAFUjNlE1jh5B2x5nRYeY885Z4uUbpFxgkgawJM6eWpArEXZNAt72Qgonw
LsDEWEQDdXpIVQwlTkw74fxrowqeyF2WpH9b/JHACi0rESNlnFBvQPl53h6lcbAk
AOnQv8J0fCAcK7aonhEBxtYxFkBggWFir42g+YBnKDI/rcIMcnOJIMyIu1QYxSYl
uSFb6LK7T8NVtRZol6B1sEqmk1BhpQ/6HomLg0THhC1YHMU16PjHAfsARUJVnZVJ
XpXOT8mQkva4ukpN6hrLmsVBTLQrQ5VcXw8lrMKkC+B5ZyNHGA7K4tyGZi1Qq93r
4MRa2iBBvXVERAxk5moi3uhM/1qQA1GmOnaHsWbYh61oJrsoKYFuWbLdA6lk+aj0
WQd2LCT6xEzO/Oc8qMpsZsxfiT8Q+HtE13I89PIFO9WUoN73TUzM11Gi00vORSWu
udqqD57EKRReDQfjUZYTY1IP2+W8exqeBT6Yi4b5PyWfYpe9Tpv7es5NfbxwC4e3
M5pAeAOiyl141ZTHOj26XGM+OKX67hdm5TgFor2WXKVXxDP7omzca8LUByQKRl92
r6R9Zx8d45IL/Bgs1ut1NCIRlmD1wyNqzx2j9SwQ+968Kxbb5hRYRf/GNGYvi04l
1ImEgypEmZf/WI6LpWCKDQXgSOJgCdfQFZlVSqqRGGU9iiboSxVbMnivmw3Eo7bH
ysBCicmNmzVtEs8Vu7a1yfcwbzY7869E9D5Yn5NNWyo/q2Xy54217DQdtX2ABCpG
QeD/D8jbhBFugUlTPBO2jau2/bKRLArvSylUVhYV3IkBpz9Zx4r3V8bEtHVEYzMy
ydfWFkY0XdzjnFbyQBsTrLZLbMQ3CBjNNzi9Z7asFGU4aGk0XGOOZWO1ZsSS7P+x
wJOtjS6ek99uFvKGnJcu9HnmkDmnnD/3AFhl/eTM2Wep0ZwlqVYXI/UlADXAsGkS
JuLfNtqipN/FXm5skc12k2BAgVLWZhHqzROTAhSysgAybJoj3PBjdHuEE7O7hRd6
5/QQdc8/+6E+Fr1fWEBbE0fTod9CXIMtdCgI65bySPC+UU5CeDwbl2OODdcPD3hu
I1rH2s7ZPXB8d8RpbC7edN+yE/mtR+mQrWfy99clSHBvjNpeA9/fhpHopd5wNVIq
9EaqEtMGaH8PkUGb4SIdrW87eyhkeCSjXSrzvU0Z0qfy1DurvwH0mGEkKchVD5P3
1MeIzxN2OjEblvEotmCUENegJ4HALi1lqoAaYB7D36toKxHTXtKYdArbtVu45Wbe
eY4p9RqHCCycuMe5IexZc9Q5y6/xwxDeeFZDES0EGDCcQ78mOSulUL0EBedK10XR
quQFN1SzoKpDVZyes1SrBxTdBczBaTJ1mgJHRGCMdc7lAykPMeUoeQENlQDQWU7p
x1MdOeb55krVQn2iTPq3YbcpMzF4skcTTAlkxFOdwtKIgfFTQoM4TaNDIfyHHs/A
uOxmJrVdCBkkOdLDmD7702LSj1jsAFLuoZlDzkke7EH6Stz0K8XNrKu3j/adtG6v
iifUVfeIfP646D8IfcOj0PEMlY3iIO7vo0BRSF5c/mfbtVAKrn9uIvbQAoinkj7d
ZgZQyekMOa4d0MFk2oQO24jEZRpINAfk1ciOwKZkQI2Cv41gpnZsDmD/xoHoaOAN
ZYgmwcRfsknV8CBouXL3TaGAGNDrGydbqpHRYCKefALKB3lkrDU16R0ID2VXS3RA
AN0h/BihXckrJvV6h7bc5uxLXUADHFufK/Zp3oaGocm/5+XbKjNtgqbk/mDiLdOU
ZYaRElArcvfH7fL1F2GlJhN47MUMHADVljIbhfXFYh0g5aBADJ0XbHIu4+RXMQ97
sNFobBrl0C8YNKMgejGjfCshcMC9aluSrI7UnvaCs/Gx8+HxaEV01Drk4FiDHoXL
dMzJPowBkaVj1RWuspIoCEDVIt1yFr8NwmgAGdzFHh9rct70bR5v8mVbd2htcmDW
jnT/yfgeQ8T0+n2UL/GnOdsn+OUT1wrUIvgrIZZoZ1huuWHMuqPOD4XacNVvcABS
0zk3kMghiv7GzG+eAGfdsiBZXUF7nwA/Xy/d76lEK/yzG8LSqxB6vFu56tYfWMZ6
jpOKgkEFEX2EWeQXSke593FnH8ZkLitGTqy2jI+hyL2hBYCTkeo99ic1slAbwlLo
ge8sTBLuxp2k0qdRMsvKqZ/mAY2f2fJpIvl9m6PobagIQEYalkuipX8dgGsmsPAz
VWQAgkGFlbxuGXmHaTnMwIpzOoJg/87+ZFzZsU7mftzDFJiA5fT2mvj07DEZ8dfo
4TBc1bHovooIMkb3fOUQ0gi7w5gxCNy4y+S/5AaU5S4TbVb2lHspkyIegDps81bG
d8GuDcTd0Hm+9ojHLTYn8MnH3rsoGCqlFG5mMjUBTwMoANjMpA6HEiMqn5Ev+sBW
myzs9etGkUUljIYvkyxoVKP7X3dpP/lorqWlKk85QxDrx6+5J0pzykIRsB2g+6bB
IQnJorIhTWelXHGQvz6oRWvXvye6LvooO5qmX/SGk8Cr+5JcWJ1VBng75RJ2iFjE
SHpvjtM0Xu+zh0pBx6yG+uF+NGoLuE8mabdQ90ObOe40Zmw3Ke16RugQ0R1aJpiU
6SClCGsKVw8zke3ir8oKalgjlCXD6KPOwSxIe9i0btDBFFB/U/xepa5duLVo1a+s
8/Kkoai8rbGQdl6L3uBQ9/GYIcHMnNKA/mGpQVWwUQctVUSzCzWyWaB5h9vDKxER
tAEvG1doSB2AYtJI5MvTjJTW0A0v1ctqvbuNbLDsmh/ESQV+P2FvwaxYjo+DT2J/
LTxCBXBpWBw9WBtKpZipG9NXrB2zk/6ou22l6R4UUFdJuemFD/BFIWAzi0ORj5s1
j0/ijDaoCzxXftJFczwK8YTBO8xPMZqUcr6n+vFSc9ti+L8KiE7IimwCjdPj0GfT
K9MU+qWQQ2u2PdmRnpatHQvNNKdkA2yHPtpZzJv+ntpUu0WM8oWU6kX/C078WW56
RR9wCm0cmPUDqgd1UGH7zt1YFjHmAbBip+u0brjfbSso1WfXzOR/BPn+y6Tb54lf
1kamsgkATT8plpV+eY/Li2FQt3F5HShvZToefaNdEO58VLmA3LF28KNfhK43SPIC
LQt3wszCPdSPxbf85OhafZNLwDtH7mm16RmBY6oZ5CtARCaHzeNFVZzFUZ97vPfk
44zuOcFpv3VLrSg4C/+drMkxInLFZ+ChiNoiHEH/Hhv/Lp4ZItVTucs7Fdzfw13V
eKFa5dYM7i73KcfUJdqTIVQA0Ehu/rXUKbDXPU4WEMEHvxE8uNa88/zwyDki/z/u
urfra0AbTbI+zb8aj8gysJtfiOBwMAp+94LDMto01+lbTmeJhYEOqIlAA8BgZYEs
KDLSPQL56iSQbEWPD7tWX3eyiaMH0L6JpiWC2An1JxoN8I/kE/V4LJP40Dirhrr7
9XuMleOMkyS1juJyroEpbBB6BuaHCVHP+syn/czn3KG3lsuupJgaT55nnEnxF4sw
OxA7hNqGFYvX/nqgV7rxgxeW+vi3uSGzErEj1UDWgzNXDdXkajHjRzEHw90craAO
WvJiBgWF/dlVGeeQpweTjqQoC1MmUBrOVGQL8Jt/ucGokK3POFDw3IJDc881kPrT
r4Lu0yQGgXc27j59PZZozA329kkD8XMK9tWb7+Lx1zoW+CzgR8B4JF5/sPofhQ43
JDW+5GEwq99vWHthxHGPnvcXBR0yVQn5ls3zLzQllozG+SJbutBundMrLwVyRFaT
Gna47V3GKOZpTojeU5TGoddrYBgA+2NgPUFvAnY98ZRvmJ+vf8c/npndmPYpGL11
kARj0cl26EKhNSjEx7UeUyH2Uqw+659G13JayGaMAPGyma6X22bSQ6vSDr3L+TDd
TaDCaP2eEuC6sjPLvnLhqHm6FaLzK38z7vNtcr1PspkfoK0OHaIKPiy3UWPNsqCp
tCjCmDKjF/MWso671pUmt6hhnnjxcxCRe4kkXl0mOaqhYF73mhLTx+s7YnbTC3Gs
uYvIYw6nxYl3QvxduY7hNyAiejHqhZaulRgSzk4G/k0LGbzc4AP2BFB8hrPCzWhU
BNks8zizh4Eg1GcDf0n78BCIxEqfas5dydqnU/wL1k0AJGJvfVXgK4AAR/Jd1mlO
HxtkgqGn3EGcov6kIGOL4b8trtGz93a4F89l/dAiEFzEewQRa4ZgNHSJD8QLzY19
whgUhXIBIyIWv9/icsII32YP/NgpdF6WbAOTgkyhIpOL+t4HXi9I9rc91kJH8JwF
VlcSVpPdnH7L7+0T+iEi1oboQBxH28JrRhgm8cZqFyOWjyZKK9QppTQl+2bBaX5i
JKTetluprV7kDIM570MT49k9OAJq9zLhaesOYfXpezwb2Bx9R9UcQtS3/Aw0h1yQ
HcKAseKMbse0d7iQidA0doYKxOQT3gYHKoJnztcQ1W+BaJoqcuN7Cm4OFv5v2Vm1
UkOMS2sSt5GoOkmJ4LoR92Q4LqlO432Rqs6uBQxHIo2la/gM4QYWGCdGP0keQmvD
IVeal8z/1iToT1aF9T8T6khU2kjDNCMo229qCvklCSZKz6ubLj4UGO/hauOeJvbk
c0Ucc+NNk9hj6AZHFerFXj0PJt7CBgfcSaDO2qAgcap5iSaC+Q0AHdqYnz83bFPJ
YL+FiD3V+Guhp7HeOJDgWmUOeuUB29y4skgdOvvpOYbwQdBI93UU9PEaSE22+Hst
fvlhAuKeSqiyZNrxg93gfvDhqw+tzwXRZsyg0ehPuLj0rIT4Avd5SSI7ql7u9hA5
TCfE34DuKmcgA4cgSjYHoIGHU+ipNl0Ot6cNJ3PDwca7uor+sC5u9MrHcWg7BKsz
L+bApZ2F+0bXa4Px3b21JSMr83a2QpiPsZLbyaqawioVT+MT6xBJfF5/34KMUq/h
t7gbachwcl++uHFl41zfltain2gLJpKlxGjK+wnWGqYTVkE6Uwa0aAUpA4NiAHQK
GLUhUBYpDdbV3P4PsK2PmOD9N9Kf3yT7rFq2K0MCLyvlu13I/4iCqI7oqV69H3FN
NcqvxR+ANP7GfYQCQufhStW19xe2mzdGOMxZr4et/uHnTebh3cp1p1pNHDU8SZLa
iUDJOgGG7EUwh+/PkX+4vIkHY9Bcp6Xhfhn8FLmYmSsc1mYBVp71v8eq0l39mmFq
BIezqaAfxwpaw7j4gUkmOYS28P/XMnhxNUQfHoPTza0sHYqvNG7L5xXF83TUobed
NExkvIWFyMLOH2eaKkFRyy2YxSJJ0gx52Zg2IWI4TJrRoxrew8x/sg9cEuJcV7Ad
a1zBD5Pjn08rkjIEElNNEYWFgUvy0NJNSZKm1ZdRctbh/OWm2R3zutDaL7MFZBZU
hUKx8DmBngalqqsa1R9BXaSq/Ae+vZmVtszYzoQmAxAwOt5auVV9DDhpGURi64oE
vHXHDzwB9CvgMf0Cbwn8E35IkEwB5T0z/yhpVCQq5LaqEsESIThu7NrxEmYNI4kU
h4iUPz6KPbOTRSAoWmMwkHUlpD0p9yMsPCX89VS/7YWw5e3OHlqsbiMfn/+oHgnN
TZCgpa9XjQH2pQlr6B/PNtl96cnIO9SIJjjw61Kzyml3MT1ErWaeWcU0QRGaYtlz
1PMDhTqdhBd/2ygCuptM0m/q5JtE5lXD6e+v+gKNwnYbl677uJB6zm+EpGgB2vYi
D4XTU07fED/SQkycDIhrnB2zGCuqTHVKNBpG5ibBUYTuXjkIsHowDMce5NiNosle
qE7w9f0O+JOsvnSbdijD+9GP1R81UvbfIcCD6cYtEsWLatCM2YsADJOHqcBimzls
yb5i31/S6FNy/pXfwPCa5OzE0bkbsuAGRV4aZ8ZWlFY1KACEYIKiJHp5+sbm6Dnm
oupwMCpZHC/3/z48fjalrszISy6d7UG0g5IXr7ss2LK/8jiR8y92OBlkhWB8A4Q0
4m7fXznHtIs1FRW+ZVABEkXdL6lgr6Pu5xJ32pZJ8/bkdmPkZG22/W0oOgRp/WF3
+dXLg/OPqIszcAa1yTgzULKNN5WJh63clLF1Cf8RapCPkS+yCbuMYqmU4rmQFCxC
Y0DqKRcjg+61rr5hfJpg7zY0l2mK0bjGSHNyDKoNFj9K5jlDvVI2EN4L07B0o2Sc
KeR9zoB7uosa3Gs1DhOyBqjNl8qbznGJpmdf7m8iiCXOFco5UeuqqYcVZFYzENBV
0y6/FvBQdMa/SGvPtM3pOJtpDGh2KLYoG0qoA84IoZic0zQ2B16lnMg6/nhlmcm5
h9Jp110Y08k/7KVSInTWCvXeRd2i9a2TtTSkrEX40GKIapwqRBy63Brt+sP8KKVH
3R0XUuQ/yvLUxxvxgesvCaCQ6DxkY2pvKtoHUz204Yn2ZbrwPVDKF5l6VD74TN0L
RRqSrIqd7esvULZegOCsn66w6anrveHwLQWn3C6mMCgVKgTSVlREGrZWMPM3tPGJ
tBQ0w/7IrPyxMBgDPVgZ1lLbuomWVj/+HNCvrTnY3QIkNGk+kCf3K8BIzQ0fjDSv
SueNnKgDq8hLB9V2rTudl02OuzqNXBsecoy7qDv8h/9iQ+EonooG9HvWEnjdFe8/
oWLgU4uIfJrDmuGZTwiwYxLlfzP82vU+pId14RjIPzdqEy86GliAghp9lANIKrRl
7oHUPc3nGSkmEWpUTya04jFhDGuE3utGFbeN/2OY2dbvyLQqIVWhznVTFPuaK+fI
4RRDp/2Yg9ZuvTmwfzssKa4YZj76PJSiU1A4dbfhZnO7qhA+t/E9+144f7z0iO78
jiUDlzr4IG6/vc5sLCblW4Poto3G2RB6BnRUF9rgC5dVnq/aRl/f9vouvAmH2fgW
FTkzcobLR+MnPfjiKkF/KkDROnKX0lHXqz0FSyw10hRqU0oS0xZ36iamw7nlZt+1
utjJT6G8B4mL+pDyuL+gEMxCFn9yqS39JiDlWwLAqqLU0aM0gYK5qIPAb/fLwYkG
kAD62vOJDz3xp3prvEka3WK/+m/YAmdlMecaOyrpIv+ma5w4Hu5HLc85EYct/1DR
pdkweyg8gRZmuXFK+uO2Nw5Afk72kwWbdC4jaN6a1nhFOKfTe7spWShuzYC+Ft0N
U64E8bE5d73wZbwu8wzjBR+zu8IzSA14HYfHR4qXKRdJHw32a0xKzMtq2i01DwLx
SDzQwto/FQUh2s+nsBDAHu3tUdK8uACVhRonF1uZGOLIMSeHjE9jas2KZpp/Mgys
XZEnEKsENL73qp0ZO5ZQU9yuS3CL8zPoNTQqPtuMje5Zy3JtEKLzUZQnRfJrhpbK
Wto0Nnu8xZ+RNZWzyQA+tsGYL43ffFGvpE/YRXI89y7pOvxJB2ZdTX1idB3Oo4ok
K7T7Z+lu/3h0jlFQk5w3tyAzA0QnZR5YG1W+LVHLzrcV43R7Jo16sUc46eCbXc1i
TeVEojf/z+gWBoNt/uci515ci2xpRI0b1AFz9AY4xJJfj068J9WZnyx11LkImiMj
34HwjPHWga5bleOOy4fBdPeSN5eDGuR9K45IQlutReErCL+kic1gWV3Qg/zSpun6
9yGaC89jG62ugib46zyKyyIb1KDkwkj3mX1lSxbuZcPJ6CWgvzgTyt9SntHWN1YI
ryOfQExaezDfHRrYFRuiQFqWrREQ0JdxZ83Ejt5cTLtkPT/zTl5hhT6GXqTCCpRh
pZbR63QlBpVqKQ8u8GaifxVzdz63eaHqphkKZJ1ytd9kV9bhflAeCXmakH7b4mCM
1cju6Db+9/okdU6Mmf0QamN+qK2B49eAITxX86G91BZYx/MKQvdEEPt5oy9nCrLt
egp8cdkNGoquVkkf4VHjo44xgWoLz/8ZgZtFwiLvJAdtGTVa+rNAkx2uWTy+iyT/
scIoDrrLD/fJeTDO7xROGTCFM/przaeKsU+7T8pG9qxf+MmbDw8dRGlXoSip8ssU
UZUUYPO2RVtNANwb4JuNiuQYxnE4aOFRQlAu3fj3P0GhM1/8HR6VYVWYoB7pZhrS
nU9W7Ph8CEFbBB4+Gil75SqzCv4mloSXuo1N5xq5PkA4np+irC87xgp/QFucNf1p
Tt6AKLh6+wwhncDLGcfVNWELtwKWb/wPyI1NIq0G30oMbpEqA5/GD1eW8PbB4yYn
jcEykPGxCnEllOxQb907w1hTo2/NzNSmHsxhGBX+iE/bPYGAEZ+B8nfbtndEe9ku
V3CDmehQUvtl9LJhT8obQMgfrNaSOPi+lKoI4zmoy/ynr2V9r0n58TITm7p1OGmP
JWequPeNeiQXvywaiCsxUivHc89VSsy/lE7QzHhi2tjEUUX+nPoYyLMDzroVXElP
M3RNlY9IGDjO7l9wB4ew+coXf6WOQYQdWr4TPtDPVIdsL0T/ZquWoAN9PndXqeSN
6h8GexxGGuu9E5Qu+ao3Q2tCHEHwN1lwg4BvtbxaO0ADmZJH07bMZpg32WipT+x8
fQ74MJ3z9oq+t1ptGg4qSgbOqxmKXs3fkrwLY192WboABlw7EiUy7sS7QQh/LtZz
BrD6sGMgdh0+SgaXW1uTVCdXRDCcv98Ytn2UnOdT+x3rWHI6qBC9+UqkvV/28v7c
M+mVRKHxl16MQ/+s4o2El3MGnHXKOup5jfsuGkAA2PkfqfWpkhu8piYYSYoCAN2w
8I6DWT8JUhqU9B4b+7o801mmDO69NaqPcRDPRSAoxYOomvbyFnd2myvuQL8ptgKY
J3ZIQ6SjKtkA75VnHyrwEpb1Kh9SbGtW+S13xhzgjO5V5Pylnc7VBXqVgvwLmWfV
b+x47fT6NTOdlL06tfkiVMG6A/izOgNdyODexuCUIWrwLs91Kj/lk9LTR+IQIVni
UmjXiu3SUKXi2yhLIAJ0+5sJEbIPF+9S/Mj1RtjxU1lMZeQUQbW/F1cAU5gZ9bnd
E/YuFexBlvvr8YuoqW2cOh9FWCe65hf+7sZ/upPOW6cG48MO3h1DUF00GebOP0E5
3IvSJYhWwXI0ry3Km+BSsHYVVIPvGp9qA3FgjrH99Wfmtd0i0+E0IP5fYhrMlaAj
LCTKvat1qj1hbKSuQvQ7Sn0CgkGdSUhSy3Pi+ntj5X0ivSiRYqI6nmMGWJ87FaGg
59GHBpWeR2hc60dYHwi3O1/tcitgMg3H8zO1eSD6jdyH7At2hPZN5kgXWSQDyE6+
h4w5mFzqpv75DnpEhYUvtFfeGLgHqnOU2YkjDrG11NPON5SDrRQZsis/Fgl3mwY+
0qXzY5GG4jjDKIQ+penVEnv7q0pU1aA/IQPZ44oT+eNhikoiIgtq8BP4dse6e+a2
n6WEGS1M5/bPqVWlmUzBAyZyC+3Y7eZ+ZL+wCPA0YUbMlWI3W/wVWBrIXLTDYNUp
fvvPWdgwUdRKR5rF8OcU38vPeJIJlx6y9YUl2J27O8lXUbcsiTzQGzQpLa2ew0Vv
RpqYLkRvLTv6ogqWTaEMeoZz6d4Qb30jGRF54kikqIOlYbxrXcMN66UviPqEMYz/
6P66a2sCB9GvUCVYYN90mpHVDJDeJbOK9uSiHXAv2yeb2Uru7FHKwT/Oz/8gPDEN
yYgS7BpPrwdZvhY60uzODO9HGlJeH/Gmhwn3W0Rlh7wXIHEx2VnNh55UWfXkrkt2
r5bQ/y6bOPSNanbK3NjPndIqJm0W5Y8BKM+ZvGEmGevt87UxtY84v+XXMzbDYxut
Ws7mmC6ggFQcrcOhONZHbboomPBA8xw640KWR8N99QmoeMZDrPMonBmLZedXxMCP
LAoncZEZFVcTaSleYcpXYaxdJm4jqK7FY36woM7bUhe8nAPFi7oOiqMmjq+AD335
aurZTwb1xctVoDYuNc2YVjY6488vneMQqPPhhhbBceAV7eQ1bhVrp68mm30jNsQO
JPPB6AVUtseAtrljP7X4mEFvKS2zVQEeSaw3ETi/41BrJjHmlpF9czabBT23MxVt
Xd4yl7JrhOsBygrzC8vpGtdZIZFUmyLkoE3wr6q/7L5vnndh8i/rI/0VVO6gDdi7
ycykRpnH+dCUtFmw7oyYMw+TZnbJktYAGzelDuzg/7GLdP5BWFLZdGgxJDu3zXZU
q7A5cOj5nkvs8iY1tW7LwUgvOiW+PrNooFWhxmAwdhMYoXN2sKm8ZPmjrWNnSKHt
gQKLCLFfBRbUxnDDnF5RQnmBg2BcyKLcGgD8qsmdoM7ZBFBBahxkUPtYCh4RVgDO
8gQ8Nhg+Ph/ObXEqba6//m4sE2Y3sNIDW9NMTQxqfDF+k2l1X0Fn2Oqj8PiBREhE
a+w0HRw5fgNKFxS7bv+w8qH19xZTGyPaA71BpbFBmFF/kOv3tHffq6Xd9elEfErR
lN2/EVc7qtw55I38sQKlgSF7E2USXKqSx4rPbq8OGyDeDNRtKmwMFjYhZlQNOm6/
OdfZr+4cqdsMggb7GolYhfPs3qdZjBAUT/GhyLNqV3K7quntecgQpFNLZgjZAHys
xt8UA9s3GmR0uYO/nrloiyjxjaxlqQY/e05OPa7/OIYvj8CqiuESfPAC9PcGfxf7
Sx77RjMYVxav3PYs7IaMVt1xryT+53W2ejAv1EHAk5kY58KQAYeNJ9J8EjEIdUuR
rkIJo2CQ85TV3FgJbnIrk0Fk/+H3ITHVTLcyg9gFNvLz/KFrnlizwVT5tngvEQ47
IAltqT9ikIUXP8tMVzElpwK+zHqTsx3gHfoIhgXBoupdIl/IoD8H1Khye63tyx2i
oAXHlPsAqlHK2B/bDRSWM0vajGRqTFdVVuCiAeTw17SDcoFWPtLuD5+I3PLkJHrw
mxv8QXxe/hDNDxsi8sZf5CwjPhfgt8rKKtfiVN5+mM46QR1n8RJ9SqhKknJJL6vT
Pm7yHj1rGOfX6Ebf1lvec1ChSjPN/WyHJ2OjMrYqKibCeh+btJFy4MDofLj79nKx
g6WGV9BW6/PakJjdHkzzbzNG7GpERd1BZIPgngdfi0+KwYeRiFcUL55Y6onZSJ/D
MNDxvD0vxVmVKD+1rPC0Kh1xuCCK/aGbwDxNeeulz37/MEGQPJb9hhctiRu8y29I
CvAgqRfjl8DBpEZ0A8C63AwDL7oiIfw0A3jUR8UBcDtFlJvajdRaL58KIeofyPXy
zA+NebTN+sU/KEmfJ/zpbsPyIu9bf5193Z3Xtjady71DyOY4IKI17SACo8fdxueZ
Rgm1lllqbChXJLnQOM1dIIw0GWnxIdj62cJbjtzPg83sHpgOiJ2ZJYOr5Ag4OqnT
HBOGYmC5DnlF3fApubh09/JNChOHA1sp8xENpcque6bdBMsLb+BQCmXyNixzUVKf
4mQDzk1zPwLTZkddsGnIWyi4oDqrx8crCfjkOBZPkrKYkkuoeDX72zru6IRLDfdX
qsKpWxTE0C4psAvul4X8OcI+0qrG9U4ZW+YoZOpTYdNjl1Dc4ILHyC3MR3Ouzv10
jW9qiLGMWa0fSjuPeGSUXo2HaGQHfhaMjHRI46T40R0/DwXU0oPh+PNNVSPoWuuX
JKSHZCWFPWWszP5Y6njQjCLK9Kf448kP8kDJhxXb0gBj78fewYbujxschzfrzI3j
HPdC8bnnrLMlYHn2/RdD+V7gUevCWRARLaOHFTQHuMDC2M1b1DxCpJsGCmUArabT
zhuG4CNLclOsD7Clhndbzqj1xNJNVzydFSG68hdC/H4Fam4D9HBbfWetK1DJEQss
a9AqFhOTqXLmI+TKsc5R/Zi0WDoeoa4IcDfqA69dIvKXDUgVGnj0w9OE9IoiiLNH
nyrxYT0SG5KfC4MsuC0yZ3EiSWyZa+eJwIfwHYLAuvjehz6vu6KrhmTkFUFwVJ94
kokW56HJN7RstmHKwfpVNIUZeUjnArXsZr1l7sM2VGOSIuTxm3cij8sVHcR1MmWv
GI5/pWMwbUU6GdDorFgyZrZVy7Kj9JdRaok/QCBeoVoOHIyl36oNn6HetxkizUgU
o1gXRivEmd6wi7IJYyTg2eTP3VwSzIEedygbfz/wezEkzgmsf9oe4v334+BpJ1G4
B9wf30NPL20UdizFh467NF11F+J/k+9EX3c5BzHjKrbnSyeNRZ/qn8jDmoZL0xXr
Ch7BrUqMz6b0QbWaUI+7/hk3MlfLg1+TbKycuxs8Ko55Z+SDJt93Wq7nuxLwtam3
I/XfmJVDIfqhPOZgcX8Lo6dYsHhN6D/eXVXZG/79YOx3L+luI5DFMtkmoGt1f6MK
AnwZoRO6LvoGRnm1Y4Yk8WsK47Dzj+IqQtq2b27bvWPi83im8rhDfHt6D6moQrG7
v9ttJd51j2Dr5S5uWsDLup06/8zpdgeatseCTq0sO08FCI8MXNGZdEIfpeiHOsQu
Q66mD5KPCNMjUU6koztDN9BL6Z7SQ0NDu6XKn4f3QymFrVIiEqqhtzYJEyB1wPB8
vXgM8E4A6voGsqI+aQH3O0k77qlzlb2TPNn42DGvvsb7NBljO8SZJQw11s/H0TU8
MdKV0srQey451/6+vCMohPvw+kkzeosTFeCkR+nIrLT5ZKk7LHXP/bwuDrxIKGdO
Zw1+aPz0HXKaDq2tXmrTpGsuqsduHHqu+R015stmC8Bkcgy6JaDbxM4UwtHyXOVi
JNMXFCwrXZE7TPHvOX3uCYF/ai1vhLeviEfDHrov6x/T3m6jmd1QDXqvpnm0GZao
Pu4bqybQOGTb0kPKNA9HPy8kp8jU7+rJagm01BWPj9pged8l8kc2SrAaamSyqf21
mLVZKeJDdP3cpzIGiFnPRGyj+vpZkuhEf81hsgjfW+ViK8e6IKkRyYM01DSe8b9/
0E15+3Zz7YcWz9EhpY04jwh+jkHXegD69BYQCfk9EFsO9677sBAA2F68Ork0gVWG
C4K0jlyNK5fQ5HCKNfYUNC6cQ8eZPb25eJHS+4sbeJizFozwQv19y8tEQaBYj3Zk
mJ7eUlD8GBQTgVp0IoP52osmnDG7e7mPt5LjVF5HbI6Y4XALri4Gx5/+ZqzDj5PL
ucTE7s6nY68EMGO2/DAiYshWjZvy3MQr7hi0Zlt0OAQZeCmIF4Moa9qnYH6HpbFL
DdLZlHdrJa8gZJnVBIEj9j6DUl14aXWx6W1SMoyl6FMWQHNzqpbBSRxVgTBBJAxa
to0yPhLOW5OH5eV24CSsy4GAEC8wmitUzlyjiilYtp3sWp6Ph+GlbWosnRwnnF4N
sR/QTRqzZ04Pi4a+Mit2BzluJk8mmV4aQda40MCDy4FfajNvBYgutLzqEtqVste+
caFkJfLabPaNNojZXK4OuGvdinq97/QUKYNSYuDXNglroUyHrsSzo6isJjgrbJR9
MGhxPWRMb91RS6lcryEUTzfKhcpvm/iUk4975BCc1TltVsMyB/vOoT8oAcvbKVDN
fsbbbjKSK5nZfwi5Lof2gLZ4cJxWLuUFm0ACo49iF6wvz8/7/OncM2VMe6Fj0z5e
sTWxkvUtzB1pl93iOZNH4gwF93uACaZkOHDvk4vAjyjLiub+KYdDXtmaohMOwm8a
cH0xSV/lUSqNtBOn1Jh7/6Shb5ZaSDEkaPQEsq4YEPcApanUcqMoyWlWMPhAJFP2
RnLJ/qVgNsKhNi03F78Kzwp5H1wqI3kGcLJqx5ZUOs6dQdBkyhBc0g2cWnFepIdx
ywRlY8aF3yVMyBKFbZ48smikGjuU+dcP6MuCn4EwolSSefQSYA4oYeM8VdzdAQKF
KC46Bl/vKf2o5NHOpWuvvRfqdq6ZzorCKRgAiBd45UstR9PiDEnIsV6IuBBaR2cO
C6spM3ZLghaVL1ga4/luzkzNYKfHyXFyISagx+YQhyk5dQwwzLI7/UQrrS1nju4j
Tb61STJg+/MkBZmKXU5CMO9F70W3XsPa3k+0ACLeRo3vPpBEpShFuSz1MOdNMPSU
OUHBhICw8ol2DvjKyHhglpujSswU1raLT3z3/LddNkSYQeeF/7cuiQZyXNM0gBd8
SmZYNqEu9IcyPwawiluQfs2BUsnrUWS60dDN/599E1E8OPD9/8FvozRvuMczarKD
/5tzUqSYh6XplT9/1HoV/beErjUEHDBxOuGMNYcgJ2USMXdx/33VVglveWm+uMEV
z8J5Gjl+SDIfBbmhDTl6NKYRPeG+xjmXVl3LNrzeJrsFviUTFLGRAz1DQ+alNvpc
Jw8WA3Ae9+kNRYy6NsUZpt1T+O3TTq4vNNNYGv/EwFJefUUVAi0yCg72+96igPXA
AtukWOy/XuDauezKeswHEZA8r+eaxPoj4mWTMif1dA6GXF266SRkZWwW0Z8OMJTa
OWQky/JFAlOVo5JIM5luTa/1uTIgKazpp5/zPCOrjSk6ue8Ib7PFnYGK+EBk7gFK
4onxHKQJmq+uQHcrnyEVAyf66LzK5KxucwneuVryFZr0lgQl06/EeDI/p60q9eBC
b7dqq2X7TOLahC8mXlRWIuBiBFIRdV3FvCw9vOsp4MvkypzpRt+L84TpVKHvXocF
OjDzlk9Qed8zX92/gee99zg3KUYUdY+52SzHreJ3i5GFmum6rWPSGCcDGa29lKYA
zjHMFICFmJPLMQFGVR602SvJBTH44mPFUO7u26nuDpXtkKe3HJdmqy2QF3ZPZmW4
59Nk6G0qtqgx9punqMOUsjf2B1zYzBMKE1eA+EvOpXs15wN4TPrEVfNNtkoRcIy7
VtC62DHddqZwIwNdmyugw6yC/A38rUbljufz0WX0VFz8RqyBMJwFcBcs1nGHTFJS
rASuVeiekcmkIo3wDdXjwEYu8A+KH9EIBMnFkd3YZIdA+vISC0JYFi1lXf+CRH/6
9FNW3XAoXbP7KsWIMqzanAMMJaXV/LGlLfsvE+SpR5LtsmdzF7VorWD50/PRvhUI
OQwSgRpFXM/mEnzIq0BGl+ZOz/N7DAkcv+0CPMrlVukwMNA7UU8yxkc2lzn/2NKM
vmvitRCeC60hb/ml9AeN+cs3heG6OAn0duI3xNVS/wZ1MUsYlB0Z3kNUc9L461ai
d2Zk1XHfteQAVPM27R9s/BEJ5Vw21Bx+3nhrbZNf4oYAXWpmMqSZHZ4Jod2h9Wv/
PYx7h3ks/n0ZgnIO5iNxIwrFQqz1OVnEq0GzFtkXSmAg9P4OAc6WAZM8h5CJPWwq
MFM2fCJkXmt4nrfplFIFxHdJWwP3gBiBNh7tBNINb0TE0GZVbyasQcv/dNBQd93D
BPGBHXfb/968tERJVKqCOA4ZyOBBVuT+vbu38hvbUVp7tGk5j50pUg10vg6oWKMf
q+3uVfoMjuQvCzwar2PIyyR7CcitUsPYpcmzv++Y+xA/ou7fnBVrRu4CHhzlgux5
bDBFT+aPhF10ZTW8+g48mCGx1iYUSvy5FaT7iVmqPB4gmW/y5+ELh5mxwT4yluaT
uaf/NCVutLV4KvkGBsNycgQBBjThJeW79LHei2HPGC+gceZWwK8N1qlNvPXFV1Xy
6WMou/BhrzwY5+PO8r1wlTMMa8Kzlpw3jKVU49ao+JdPKDoBwRCbToMEhISNCLnu
3ejoh5TCczwglqwtkS/BhPXGdg2uNpqq03SmylBPSCnudx6JgdOkhhVuf0yQ8dm2
KIHmLrYugETYxn/3Rht9Kb1LcWOY57xh9jpSRmqV3rAedKpMmAHuVMTbXf6gOum3
iqpU/60hyrA1sRiNkSa0ck+DJ8weNN0xgC/rBnJVSepXwGaRhFnRmjC8W4ogbNpL
to0CZVsUu4glu4uiXJEI3oLDmFyMj6rCqOfCIMm2TslvDuz76HFPDtNs3SCg1pdx
ZWfVd+CRNSRyGLrQ325QqIz4axvsWjiwWjsOh5rcAcOQLQJaL9BAIdLCo9J+Nd8v
1ZJhGR52Qj5musBH2D3JuEktqvg+RuGCSuBLdpDJ0IIjJErb+7U4Uu+qfd/CEnw8
20ZjjQqCNRsB9Ee8ar2H+bdaV74ahH6dVfbiYpNOto5sSXd4QQaqWes1XR95Cj3F
yAD/vxf4CxOPECmTtOtOh2ZEGb1Uo42a9kJm6E7Jh4yXTrk89B3mPXsTNf1jjxco
StPcFMTAOYbL4FRImgtMNf/24vf1tvyM6oP31n6AsZaGLzGWijoybbn1/EttROFa
W5eHJVR9BmjHEWriZRDKxvIQfz/DcwK16MkSAVLSxkeHIkrBfTFuPUX6BN4ImE+B
4I7fSvhFw94q3suyfDOM/iJTdD4SZFJoAa8Hx6XeI8HjwhTIX1uONXJ3+Uh5eymO
bvVWd/PHNJWLYan8Lvlf26xDWcp/0GuvUOHTliZZig1EayKTBi0C+3bUb62r0lXJ
CADTMaNbg/0HAzlWSkdI4WdUTGYth2mhgKfB8JhBGvFVDMAFsx3o52KgU/Wu3AQP
AlC8HZATenN2LBO+y7xJITErXzgUwkBv9cLff1NjrCPmjCTx/Yxfd74BmCs5h58l
yUiWAIGn/YWHPVdf5g/EyBT7pUt4/m0cmIREgA+Z+iybTFcmxLh6emOOhDMiSKiX
WeuBps/yzUJ4+bMtFUvhUCIMEXpQqjY/79BuzGpXDayH4x+bJrh6Ni/KnGuHr/IH
Shwb7HjuWOW7hP5wOxnlqPgimLC5GKf1UVdmbejcMSL1d72r837cJ8pK+JPmLSfh
jgDM8oCLhSRPRs3XvTbJHjpeoRj7zBykZr9n97MBXUga2qPUumETIYx944vrZF9T
EFVTR4iP5wQTUWYAYLNvYpuhHtE1WIetHYhZcLBrpPXQl/HR1kK5T7xlJeIXsqWl
lMu9OMp/x9gDYrL4pcmSSb0n1SxVDZ2SvWDUVh5Izk5LPuMkiG1Rr5L/m7L2hHux
pIXabduZMEg8/MOLLukM5NsZ8dHc3P+CPOHmNhLCon4v+YqW+3zA1R2n1R5I8mU9
TLjRrTOyn1dRb6Zw8NiMwC6HA4FONgY7WdiUS1r+y5OIRwGGYGPiG/v+ofLky52U
HE8vScZR7u/sRhUeFqFphSiz084owNEFSL/WcNUs6PUHmAd24aWRWeA4ZU4rlmTd
36fVt857GFqKd+ilWN9sHx3N6I+hlA60yUfuFINPbTHX39oc8cxHerMdDY/FLKiL
3yLn3XIJl5WF7scWwCZf5XAX/3H+A4GCdXtc37fiZnpanPFIsJqfyKIXtUIzaT5W
BL16tLmoaf6MhRUM3Sd98mnOO06IJGoBVtoTEIewkmdr2C6HGB6gfeQGyhiYNQJ4
XTtxt6vcfdScf6nj6vTJ+SeIKhABkD273pDLrkzMuDe/0Hzo2BtSntBYl9Bb7SOi
G76CBdJwNOeBq/BNpNaIrxlAlPWhCj2WTa0JFGPLV0mlSHjW7RLc3xNMKy7FjgnA
s2CuHYmJolRQXENd/VKgBRcM+pzdy4ObiQMi5ucwVaV+GJLcrltmYHsh179QV//7
WGTDm0Yf9tzgv1W5Q3QksqJWCf4xw5pfzSVspJg4wwhLI+j1nkFXc2GTcDgrIm7D
KU93Wcm2w+ejL9zWDDzRrWavMada3EQqA6kdDb0pWSVTYLdlh61EaOr7VTDReUN6
4kota1/AN2uN2Eiit58SgKMagrkDw1X9kNxJAwIgjWRbLqJjlJZdqWpmArAPPWG5
OTUXUcf0c79GioEcu+/y+XNJ6x6Fm8PWmriV/4T2p64m9gvsWNCtITlxa8TEXnlS
TWeR5nhTrEEJMXtuh5ap9eC0tqQHO81Pk4pteLkTyBh8FvmNONOYPwYH5aAoCiyj
o2cPmMmG5eqjBnnZHMfdgJnJ5y+1JwBhCM38AoB1LWZPQUVJHg1L4hz/SzuwgPUu
Dic3qE1Gk2M+m4D8fulAfNnuAVEJu8bqePH8jCM4Ct0c+k/ar1gsjNMSzQ+8Ljef
EUOq0LkCws0/8ucD9FTjk9QYdUn+DjYPN0i2bO6kCCTdlpLeEhRy1D5AIwbNQRj5
W9QIDtLkKQiwtWXL92ndLVLIJCYEelq+3Tjsp9V3mC/KgwsOwROJB1CaWNtRtJJZ
Oo5sZcVEiQhren38RSg8f2x+3vM/Upek0XmsFSweBZ0dDJyY1/2WSp8qEgOoor6w
PGglQAvpE7yNlgYhsua0AYliDJI+Dp6zYENzNL3+10kn7vUehJv+IFu+eDloQ5/L
Yn42oj/TQa/vNnAah4Lip+Ne6TSQ409COFCL5vhOWagiH9gdwVwwqK8pAjUmQvwW
DbxN2a45h4kSMvX9E8y+MIZzP13yURcwcQjoL9TBwojuBngTSD6h6Ix9N9qC+NZj
hzxoa/nE0LRk4lBfM3uoSHso9fdj1wHyG6nJo1gvmXMN4IdlnlKa6XNIdkiEc0Ow
Bk2Pw/dSNmClOPYaKE90H7MpXCK16bfp0P9UjznalNFN5ty04nPSN2Wg2iZ2VBQq
L21j8JLa1N43BmSA1rRnEbhzhFMIgHN7xYgVwBeXV/E437482bRCaQ3ZardEUJw8
w2zwU/JDk9qCapcIW87sUdKHCW8jz7f1yZAs5LOjqri6+gvZwsLU1R6RyA+evKtn
XFXPPsvyEYZmpPC94zaZsyMctWmB2bzWJi7LAs6GlvPf8OwgL9PiXR5qNxol1xak
PrDmaevJdNLYZMh/EiGpqA9FJHxaJao0MBWw8wwubAoSN0UcISzu94YdMV50zyn/
vp978JjbysKhevu4DIPT8Z4DgBDGODMNwi9poQ14ytJaro2v/qwpjkK7QLwZ41J5
BS8/Tq13LuXWTIX3vP1KmNHP0WqZORYwMNaYN/r9JkmE+7ASifrgRzkJgTQCX2y4
HWRczxF2ZTb/a49iXQFC9QtvNRg6EadSuD1Lv5c3JS0nb7rnU2E401uNqNvpCKxc
tYL26mWI6zmFb8voktahEzPr7iRr4gVNSnR87AbeMm1JNlak9zM1+PEHGpeRbaOw
+nHLdflWvdiQJavh5sYvNkoIcldPPyg7ngzM+Cb0Cx2jErMyOhiETABpngnp/dkx
xjP25CsDTIVxnVWRIcHMagQopgYLLpmFsvBG8xv29bnIIDXIHBEchsIui802FYPY
zrVzu1eAVNbMlSN68zbtXtfMClI7tdV1NqQqxmMGb0R3BUOmEPMXvmeiimr5dIgS
6XdtjedK8AM4aeQ/iUDkrdeOdITBllYK/F42XhuDN0ktHd4l5t1Pk7cqRHO+puGx
hmMZNIO1oSAJOgdPeqW1gXk0VUtYqDBVj3efZEtAMCa/6J2IhJnU8tQEE5HqT6Ih
Oq/44MPLxTDnx2Xu5J5uKBNuh40B+ugrdQ4vUsAL4ILtehpWj1o4Q6if1Hx7zYys
wGYy6wQqidzSMeonWZvfWFWXDHS45rDbgi/nOBEVaqqIK9nDEUCoBUEUwlmTZ6AP
6jewY+xVtknXMrIXID+a+2BEAWRIB7kAlDHXNri7guDSf/mVxvLYzjALccxUBopu
FiGO2mJJ4UHunFYWcAOqQ8+a5vfliGsk0VG62nTUBPQrS+Hp5L/osWYt6gQczrRv
Ci3qy/hwvV9/963wBbUWU79ONlYeKpbM2vsO8kOlcQHwwI/rYvhqalaVtUFKg6Mb
kLhXG8quVPAHS16/cp/MzXmKFa72zDeL0GiOlNB6NoTzKWxLHEevyYn4s13n5Bkj
mqQv26b0ztad7D2O+3AkXl2p9/bnvbTM/3fK6lk4xF6D8i/awev7OasNLucJkr96
vjaEB4+6b1/CYdqthfj1QGVGi7FSoNy9WfztOwOCnkQQFRU8RV/6v/19Ef1SXuKx
j7BY49thyEnCn0XW/t9yAySE8OGveEUCj36o4m6obtaZMLuPSI1fubkM91yZbQiu
f8nCIqmaKQ7NKRgMepnKmYx1YxV4pcNPTZ+gphS9uIXh5SoTwcSTSTHXMDQ3GW48
PCrBw/Ls2nTofCqhULQlpcJKhv4JcgOh7kWdmxwzgXlQA5yBt8OIRcwJkrU+yrFb
GjhSmw+3tcOIE6QR+ksngdK4oZ92aJHP1MnaYYKB0BlXju+v6G+1QYVuphwAVRDx
kyqJ5RxawCg6bsC6kTK+7pwOXrWqciHWIHfXmQ1b9JuUcKLm8DyDDP5xKGpomrrN
faruLWLfLWTcAsk05Cg1PyLckrlmKpUiTKwT8aGL7EQN8cHfNM75Bns/LtZmrvwT
jk/XcssU6xmwA8afZrBFtjX96UK2+HGZOwGME6bLCN4OblPvjX9WdOT5lPRZkXIc
JtsS9g/94d5YBdvCAI4BYk88XloaruwU1VvKH8uun/8KFRC3ZzI/rClt0zLvC4bU
h6ds34NSqYoWAhk6Ol41DZDeLm4Fa/Yn8xi9pwr2rrSrOBIAM/bNRi68ACFmT076
+WIh+Eh6MCduNAcOiphDQ03fI0KdxDRGehwUY2nzjDPmlbplAzG3j+bhYucqJEQp
GWcjNVbURcrusJDrE1y7ouu5mDjSqiupr748NFiXCXeeERkO9nEZeqU427Xqv3u+
BVLkJwIjoBxAzmr4w2DAFubvVCYgEMHqJfSfU4RkGMefyoV48OhiQmLcDScPqYh/
MrVjCdqVQVQE5LhdnzZcp+wV4Re/2bznMngFchqCpjK9fgulK4pVl/svKV0+oLr4
PABMtCgWNqPkurSW4xWDxq9knhdmlzD5hOo8yIXLzGxAbDXyMousr+iqDvYSzkDF
f/pL/CABH+jopqL6TToUo+XuYloaIvsoE9tcssywaY4bVpRy/EZsWXTHzVeNPC37
IxuqFQaDbWQFzXwOFa+XbOizgxWomAsGblBS9QCFq29kr6W1QIdc6TCiHZ1tvqwh
3kdtMJ4jDfuZSU1r3Su6AyQ85uQMlrjBF9cvEU2jyf+l0EY/nJXKeLFI4+pKuO+P
z4HIwjx2grLWrRTIG6TfCp2rfZbuiFtL+CG1tuqTRzr8DY1r+9wtxNpvBdlAfz+z
4IHtiz68oZ90p9KMngKYnp4KKjGwmqK17eXBYh5S+SOw5KKj2i+oyABmrrXqNL+Y
AqEGth1uUHY+AevbOxCZjxjwriGt8Im1PJW7359wd/OzrexNuSesk1uL0UPhB8Ep
sHTrYcHTui6pbx5K6AXvFv/tYFz7qbxuAltM4zIxlJHatfmXDN0XA31Vhve+OC9Q
54Wsb6CqKk/Ct7LGQfMtKmxVgVdQUM8X2lXfeDFYgm1aA7/cbgZbbAxMwne8+XsU
eM+fDjEfFJ5Inhys9ro+s0OqepimP1drq01w/z9eOIKNsBZcMWlHqn1PqiwPeu3h
R9eUDpztV8LPmgYbyb+8XdCpd75scNs3Adcan3D8+67QU5FZf+KB/BP5yYhFqtYv
e1vAePoCNHtW5emSJf36S3okvPl8uhlvSkEUdeKtiS8oQZ5MBAJv/COvMS4QkDqf
2Vsy4pftXE8HxeUZUT1T2oECahSVD63tDaVp3XilJeVF4yaxp58kgB6aSqkyRYcQ
EwjH/aRUG04n7DyfuE8C3OBL9CgcvfcvnTUSTZMhaAttTz6gmoFKP0NKrEHfobFe
M+x7hMmX6Et/2jQb9e9k2eQvuGA5KjrLr55CkXe89FqW+BmLB1nxbAzxnp9rwMxc
vfkWAPvKYLUCy1A5ajiJv8xM0T5xu2LFCw7TgPngSj3qOluQoELzyLUI36Laoq/H
PeJBfnZFBqGCfVe+WWTSP6xjZOBezpBlXR9e2t9TQYCT65EmT8THWwgzfCCcRaWo
GKxWJwjvCEhqXw3/kxyT/mlGRyfmd9yzEKL8vI6sM+7hIX3vOBUuxCZc4uD6B1J6
t+IAE2witMJO09mKjv76bXXfdJL2JlZSt4QDEkjnlkxyVp6Iz8stiaQCjHn8NpDW
Rp28uAx1cjkw4CMjmP8fNyhvyw9MISw7j8DR5t78zdumVbb+EAItphnG9SMgW97A
mKEoQISxSTL8nhBk+VUpuEI9ueSdh9EdGRXuS7F12O5klMnxPFWhMdzZn3W832FS
VEWrDffvS3hHfLiavrHclxM7vKtRyt0tIhXbepoq76zn6vxjC8uri9MUZswW3npI
2nfRU8uzbc2oau1kqwD9NbhDW5+H8QGuUmYIB5u5M2C5IQVFosnuJFSlrfiCh5IR
YVdkflxLsaAwKlBOh4iepsn/Et6Pp/0KCSonpoQUrmdT4N2SCT4KOXpzvkeQ8BtX
ZYanyw+9ZwWOnutjLN/LPcZiF9hx4Gf5KJKNXTV3jOe339w2o2nkWCD7a/FkVl0d
JQkJEGZJO2tthcdSD9NoL+8KejEu04DBDlWcr5rPUA7BbNqHYRlX807MrGVoHLdX
42AJcfHAwsnuiOEoPeU6oJsLasc6gLrf6Og3jRpvSwZ8ZsDhesB3f5DB2RfMMzgH
eaFfIHwNn2EATx4B89om1sM3cnKRTbYZcE8fJhMTU2ijTJuaYG3ofNxFU8UTfJVl
MFGXRiC1hLcB5Z1XEDVOjzqnTBAQwYw6Yne9IWWF0tKNhg0wpKE0rp4ezKkB6xqw
YFKo6zMI5s5zVdFLixKc4dSWuJcP+TrDrhdDRw8+ac6sG4rM3juettfRPXTM0KAV
f+BO2ISKiSkhWuw6+9H+K4TeetuoQ1IyYBrPgj+b+jHGplpsaTq6l3e/HZh3xCR7
13LwlFFmrZkHyL20vxSBybipYzvBlbCoW3V/yTN6YxPLl7McUwqRphi/72FrdPYi
xmj1UyuScHn9l6VLAYj6F4/IznUplrU9zVy0+4aNt0LfDmgRv2ardKc0uTEaBrS1
/HGdFcc8YlPyAsnG7id+QETKjyLHlzdTgKLR1TvfTj7f2pnQyKjivAWLLG9FK6C7
BBz7+R7ceJ6WxDuq4VpXBr+q8SBZBr6Q6zACQnp/OUjC3ydaNRlI1jrRdtjLbdV8
MmdrU2+Jgi1Xj7Q8ADVWABWfllYIsre+dwddDmULjpeBzAEI59s3unUmyfZddAvY
pTa/WdNuvLDOyDxBgJAtLz8sWW64neo9FWD7ziw8X+8+VVCKsfCrgLg9HjgtQKNj
IiVdAQ43GNVpoSD3KCjUbODkFhnavCrVt7FoJlt3pBrcdC7qHWwuE/v65YQjbZZx
jY94TWq1xVH+v4+Xmmf/W7WDzdCm3bli34CxsAGRBTV6QH0DbwAKApnF/TP68X2N
xf2Jpa1PXZSOFhm4TQfb7iRSdTlXvYSHyDQ39VopWBgRsYyf92CtVngnvSA+d/EN
Xw8zW+Zt2jrc2yebzJntlqhfuJcHDONLLGrll1/f3P1RlzffF4DrNQsReD69n7GV
3fbKjhC8SGvkHCaqnffzpAXhaTgHu+wg5x5rv9TRfY165fBtyzATE2I0ZDRUasTn
YpgYGEsFg2hnGvUOyUJKkp+Lk5FxbzEkQiKHOR0qq0CRa8/MVqjhDimO8PL6FJmT
ARDBPDls8YHLCfLap/f8AUadzb6c2Db13y6qx1Wvhq09i+HR/4ZAQPu5Hl8cKpjz
z7zk7fFXkd3zUfgAMFBVZgfGYRFvSukPQrJhQjMq1b/GYXOIVYTc8nsTyIxDzb3P
0GQyZQyD5EnUqeCf+UWhN+Cn9RuUH1kT256li4wPl2SB3JgFA2TJT3RVcNzmxMaY
7q37Qt1M+WW/UhHAbg1YVOCwmcWb6rQjjXErG3MhOFAc56HE9GzWwvBxFUFx14mH
0fz7isgbx9vekv2auUSdiARb32WHpHFm0hElm5XkqXuyGOEepyp7YFVngWQto3fr
rxAXoGJpr9nk8Urm03SxKx+e39+IEjPoIUs/qfoQaR8rIfX+H7OkluILeyE9IRWq
bUtS+IFCwiRTPpmqAmEe5tvcfge4qoMxF9FA8WPHKA3+U3f96DuLotq04hBpX7nf
WVW3pRjsHk98Pa4jzPSCy6pfysgvpEct+3Iv/hhQBS/KPD+iyF0ZKS+IXpa9p5wu
ziKFBNtnmRN3qEOCO9j4K9nNKQYpa97zdJe0xrB9ddIVAachTM0z6bJqxsC+QC4o
i1DeJHR413JQBqgWiKOec97G51HwEFbJ69A+RLsagDh//pRnVaSV/xQcayhsDeWp
K2PS+fxhLeBMiVGUU52/87JJmdbb4Hx7jjPkLcixn4obnpc3dEk+p6AMTmKNCEt0
xaEdR4dUXFiCNDes6adOPzpY0TGh+fusLOxEsM92qQsbVK/es4oKpqAEdAjCpI+x
96mJd3Y9wiikDyg8cm8aRiikXMJ0p10nG+zs49zwcHtbnRF3DiXVzdJFHqMoCVCh
gnQl81kBDTcf7qU4Atj3WyJV1RMckHEh6SYJeKcatU0isjn6lsG6PExu79JsNvqd
WOnF6XnRqAjvifmPx36LOO0TfBEX36inPQZTAA11Wq5Tn0us56iTWJ3bVYr9jcCH
I5vupqWzTgDEEU7fN1TsbVmkR815Wfu3hl26aUMKhhuVroxeavEZ0v/vrOcEPv18
4dJbDRrGpd0fyXVcyPvPO7jGMR47qtMvTtUvOCrMqdWSUA9EsyMHtIKxZ5WXUbEd
K1r/PrY243wNV5NdsBd4RMAZtyN/zpOtIDVIGpcglMFHA1uFoWyexhnt4wZ1l7o1
ATMvqw233SPOh5vK9k2eUVxg9RiWWJ0j17iAcsvSNHt+tenKj6Ly5t/8X6VIs2yL
Jyg8v2A639wvx8LBKMlykQagI6v17g5wlATJilki9dOP6Bnr/+URR9dYJWWBQPFU
pv+EAoWMLlNTAQuXhj0sbEeGha3aWalcWzvMwr5cHgBDmI+1n2ahMkVj0Y9/RmzA
R0nou/4e4Gho3FIG2ZkfXKtj6K6FSkuPqpsEhn0gd+S0HTQbGQtHdosSszDC6YC6
g5pff2k7V/RtZJldKu3ZigBrctHV/8BJVhSC75Ndwfh3G1tC1yDgB7ZEQ7fa9MS2
yQkoWSWYboijEMIovdYhbjdLlhu7D9JsQmSoTRelB8PsRPGW9eq+MvHsbLoK1jXx
ScpJkil8yy/bukLMRVuac56t7UNXSRfCVxnUoyAwarDgPGJcgpNWp0/IYKmr3t/3
/u3uUplDXul5sJWbA9ouCzuXNrc89mYUhQB48/K3ADeLIX/R8bgzzbaAtCSpeSx7
WAjyRCC80EpjoOEE3ef5WZIhlk0dT1yoixoMkVhV1Xi7rB0E02jPz9Q9U3E9cDNx
STeafo+uutMsN8YyC1hWxFuaxsHYSSuS+gSQV9/8s2ctlSxQBaZ1qNTlTIvwQHtO
UthzZuNFO9BbowL5sRTu21gBspdGNJYyfJ8ErBXyOvDrCZDflLrBykjkIAcS2rMn
nD0/SEyMoMXxXBbWNRzAPyFZoFp2B5KPa7fU7sSQhlN1ma165iDnkXVZ+z7d5u+I
btisgfbdZ2arC6U+iiO9K84MgyB0R4RzCGKZ90c/oRmbMSnP+EuqpVMwj6uFCFkp
p89P+ETfvX7t+F9gPPWC0xdPs/78Ze5IVcdBEJq5wLkcJDpIwKw4alsjGz/X5Wn8
tSAm4YBBeaLLMUrtQvG3zk3DWm6N33QsfMStHJvWsFnHp5AxhqN5vDk4hNZ3x11/
2QNKDQEbHAy96OWWMyKwkkpHhBo8LWcBNwmC4YCxNXReVGIkR3x0B5G7HL7fcLvI
taMG4GMpqk9ay7SR6YcPN72PtvjpPN223sKtwuNyVUFj34OhcLsKfWTvFYpNkc64
bN6kHvSgjDUUAZDNe2FNQ+5LulzIQj1Llbm1JD2EDAPxvBTsq5HCJ5CEi2t193Rj
rhCEfi2Rwcwm8/sOnJ0+6gEE6vrxBtcfhtuN0AZZJxQkCkgmYPfTS0sXq1l3VzVr
IddqQiK2AT+7pylEDhA99gQUIrdLwg+RI1wtcaXB+IfCo4ZRy7lpt07PGZYwlhHC
mVJ5YrasuLsvZGKwmozlbrPZKTuWS5++kQHTi2Zs48SP0K6UnY+//Hzy3y918hC3
LSgV+HGSUG2ZcoFM3nViY7RzsbheaCSTO+hTWRaK0lBy+ZGkcF38qCQqOlsZyBeE
R4aMwR1OkOnx1E0mwMrgN8B+PNVJYDJjFCq4RHo/B4zUEDXYVAGJtf0BIvCGvwYu
jIIXOzI8QARbozE9pQemZL39HhUDc0wL5T68DhQo8nk9DRcPspO1Nu6Z8GzhyU+T
67WoxCpMIk3nLGugYzTgPfdocW+ILR5BqjnpgXbBglnegJym1rh4kStrhx1/7R8m
ffmYkG5/zUwt9WxQZNFIiDRtuGwGQFTKftiwq5c+OMNXTSGmlU2IlXaewSdRSGG8
Ky1+EdX1h/KKxc00uLG4TPnl37bOY9mGcohlZMyMyLQHpBsoWREh0kpdgBoj6wiv
B34aO4RVa3lZy2TgHjVdUAKNtF86xO3QbyRwAdiVIVGeCN9P9pt8YZAu9XkKOOss
wCPZ2b0JjAWlFgVBAFjQO/f4FClsy38JQaBfBdWHA+8gPMsgN9lst57fTFgjRln2
PfQhLkCwdDclBB2S+8UJInT8WYH0M47c3ezw5LguiYU4DI9wI8ey5niT5F9ritS4
GtNCYuxrVTommG0su4AaCCGxiqU4O12cnE3XmTD65oFUS5AV5CyhkumcoD1LW4ah
5Mi1lmuFG7iYQqWwzxV8GYEg2bJdz4bnlStGoXwLt5WKPkr793xrsATMLvDlWXAm
893DMX36BjIfOYOu4LGHaT9S9tN/pz4ISyT1TJ+lOSVceBq0XaYPrpCPJ1Ps96BS
2QIHCxrIRVG+oX8tKLcnPG7IGUyEs8O9LvglauP7XZsCfDPO1VJtBuLf9oK12yhS
45a6VEQeUlkMIYuVYitCTxci4aYt9R89nhHk7M2tOhhea/+Gk6ZuUYb/4ThH4x5v
iQ3jAmOtyqHqZ/G7EsUQLUgzqH9BzpzbGj9UGBq9wS0LsyYLfm1xdONg+DhHMmim
wK7FnrYS0GfhRgAroA2gUJGV52zVrjfZrQzuZgQ98QxNluYEf9Grxwu60UpmM+RR
AKBU2B6Bvy98lVXGP+dPzdNBTUSGElOcA0ZMGoFwJX/8+cXfXFWcZuA+akZq75J5
WF6S3Hi4jwJXrWDJCZWz3aINecwC8bH1rcmP7Fn+c4MNiHf/Y42arm69HSkRLEIV
P6WeD/cyDRPTfNs/Sr7/2PeacS6yHiN4i9uSbUv8HzI+8WwUzVDb787LtjRN+8jp
3gp/7LxhJTDNKD4TMreFraKcxW87OwL/I7ROV+jqjXe3FBSU5nmgoOWHOpcFb6r/
LZ6Lsm6TklbW1eDzQM9c1KbkD0kXgORk6ZuXvLM8+VtrbHjwsCHnZZCI5lHIjDUZ
0FgBaIs37mclO8jEYTojME5LjhC1SoEj46BvEQ33pANMin4yyfkbg5JA+0lvNJ2A
J9eM8xamTq9SI7ROsCAS4rh299auPOiRylwrm9IY78O8bZTlejfgaWm4bX+8Nf7T
s0x5rQtQUOZ8N1mV/gXSiBlo7oNFTlgTFvUTB4BiMlsSWRkKATELtAtlXS7pbG/h
5kspjO3lmaBSmLJaMI+fs3RYr9GCytMasY+D2ViOSoiz+f0g1PyXrNwwNe2RdUHi
+HqyCJCYZo7N8Lb69dBygDENQNO9lz9mpJOtzGqyIzcyMwpig0GOLUNL+oL6td+y
ums4nSCXAIKmlaveIQ683/yBLt4uS9LPeFtWpCjlw5tw7nPQakleqyEGoJgo7nWb
ckeWJ08wX1SGkRJaeAKOoOcsaxxkgSIWKf2VAMxCOG+3HR3UhzB98nEfVzb7V/GU
mGleKyWyeS8h2MGCrS84qjciOxL+Yrz3gtacYAnIjtIdixrkbOxSWEA+HTunbW1m
Yj379rq2ntBZU41476hZbaVYMplztCRS+SOcQmufAvwnvCOtIv69Er30Ylb7kni5
sDpRtW3nhiSaIQopkOafSiqGA5K/69RKCYpmXdvJlSRteLrqhn0er9hJruCV1H6X
MHBmni6KKTNNpSowGa8Jxmea7uFb4QCL1CF4tJa9d5Yenm5fhYOaYFQayEw/D023
K5t30xTF7tzEaLNG3CV4I+g0E4kMGYQ9ggzsKhWK2qdExk+nazcsCccMMzjYA6Um
x+QhwXeKfS6ynvtuYDW7acfn+mJRBhx3Cixd9rZIBLritiy6Hvjqe1wL2zt/e1Z3
eVC7e7Up7jcfp/rrWTqVW4ukDZVgc9f6z5UPn4yR8rpYmpqI1tdRjZkp4iUm/gBq
DRi+3HBcpZ52FsDjEIzsxmIj1CUfa3ObE3u32wML0LJCj71XLBWLTx7meBzuD8gD
+OBPDo3aAd1SWombmEQSqB4+XPzWmcQmjTZjGQrkx928Zh17SXid5sl0lv3y6T/w
6PxO0y7iQ6jDjH4Yy1tyMhNqi6REtzXVbBFFhZaFsw6RmzVlqW9GNNOdGYw2rnqo
GrVfvumeMHqw0ByAZwfQ6QtgCmwEHtAKIoHW0KYY922VNuB9tbvx8BBV5mFChnPd
lT0zhppzsHC7JJyc+82EUBvkCA7cSEasiVdRSrz1UNyUKycA2eA9gTIs0l9/mxrh
3vBP7HE9AN5GmhEivSs0oXjSLMngUDXjxsvqsJQxUddmZqmXlAPGS4hEQmBefTda
PpbTFaspPZQ82p/JIYod4yfZkC4XvVcBu9jQfbWjVYSadZeQ5mpBeo6ljXimS+Wr
p8IA2Lo2HT0NywYL1drKa943e69boJQWMcreFJR2Sh3sagyZIwj1wI/dGge8YE98
utSrRyfaqn2X2T1+dNnEL7uNpDyJmPqiVQAIlBOHCeQdfee3NTHerQMLTXHcsGVe
yGoxO2La7wLnCiInmwfCaQFg7LOS/O2/W/1lMnGx9bdkgTC0cE1X3P0Nx8hPXGmP
p4KNTy/miMP+u9MrfDhdUp5J37INsLXkX5uEkqcLQJmOAJ0sAYVexjpY4GwDJcrn
SIETxF26NPaKXLh7hDiJ4QyEZxQWGQgXffws272U4asXYACoZziJiRZHgfAEJLiR
8FAcL1vpnjsNCiX/5Y3hTnEHHDNtUaBMthqzNUsorhu91WKYAjp/YZBl93RbuJU+
WYd9F2CXzDjz5Cf1kghfE7caYb+5brw04xbHa7znEqfoLHWxKo8BZkCUCK3BCywM
IrT5kRRuAyzDm5M435Nx6Z1aZGcf6iwOKIpnbnUFDEaqX9d0K1tXYQwCc4VFGYmv
VWcozAaHed8+1oZ1+2ue/0yBFftZ7Vky6/P6iK57uunpjI4sq1ZLRgHKvUT8iX0q
XVLcjdSRCoe8uVw8COKwieanNouWu86ZQAYp9CTq/UowouSdL9EePD7/JzVyYMTp
oRlLYReQmlE13Yi7iRaeXRryMss/uMSt0rxWLQHkDATerL405nEeVSLlOvO2DGkg
poiAj1MayfiDFmFZ4tHUHvHifnZHy7MGmiehKG1xc46Nzha3Z+IV5wX43GYvODh+
AkOYa7x69ahEXpb6CJX+HgBCoAzuTWK2vdNWNA5LC6YCT/Kg3yCykJNAnJ1CZdrt
SiwiDVckyl8Hh7iV6RhwwCQTCPGAg2SnchQai0icPidmUOxyd6vZGdmArMI70acO
+8i2+KVDeskNiiYMp+5ogkBxkjhKkHSPP6VKXPPFkUlWxvuax3L1cTxiJCAcHpwd
f8U7BgUFPA79Gf+mHpJO2iMJe3iiJ4RkfspqjvAIjmSTuv7ton4gAaj1qo57uU/t
l3onITdxvXsvVS4/uWniiSFF4Jnk2tVKyGVSCELXNGL20U/j1QcNRojocok5lktT
vXZkDUfomDsFTo0tPMlw26/NN1hDmAEkYcZ54ifA61WLv0x1WMOiTPXpiH4hiFGy
DDPaUUOZtHgulW+VjIOOAaIOjeZRAnfcehLmn9HT/z9tD3sWxNBw3xE46tnbZfvR
OFFbs4IGUEGLbQ5RnFqxNBx+jhiKUET4A5HjulmF1gylQdUd/2SqEUtzexINO0DI
XNIRCeolBtafmPouYjvjsbm80MSwWQSmmr78/p+/1D8UR/B3G0lV1wDiHjGt+dqk
fmljerfaQx9+4Jq+4E4ryKs+/qIg9QEq+UCaaq+CA0nHpxSKMSAGS3I4KiMrkAZo
p92q+a2Fw4q+uUwrJZPABNpITj1ZA0C6tGnTnoyq2ql2lhr6SrxKiWFpzTsSanQF
1lm5aTz4X9r3/scmtmYqUM9WwKUFDf7/Z4IgJNWLA2EF3wsrZgKzzOgJ345KooFn
bxJYY5Qk1bSDgP8wd3J9gScCFqo0oj1dcTikuSr25dMQIoS1RHEaoVDymHdZgmJj
H2cTSUGjDZXGZfh5Enk3iqBqsgkaFpACWNiAOOZfDF6eGr+uV2McmzXHHlcE4uwk
Bjq9UTTME5GFqgYEMq5IXuG5i83AJCjEnWq0xMlsUF99DvfCNnl8jc6UtLvfQZ5W
pn4G08XadGZXvSkuGstckvN+kMZnohUOLtIln9K9UW2z4zdAKxjAbnjjl7QxUSSK
BBkoHVM8A9/XA5aFm8IVGyfIQ8eZYohSxo1JbJBz2sbRUPRUnBeBfCmUFpDmesj0
+r+YdjzEAGofhYz1fvJALj2Rg4vckhYOsckuV6FnIEppEYn7egF3ryJoSTd8kITM
hLx1JTe+lAmxJGqJbvASVNHnsA7bnYumrKhwMRVYAx3hDbr2dXcUQEQdZySKeiK7
yrfMAJFA5LjmoqoTF+PXiJ+0+mc4MoezooYzy8Z6ILN6UavU+s3Cj0zOPonONp92
dmGq7+CMmlAn5284O5NLWc/pheYPGYGFxCK782exv2++CxNaVfYzxz4d2iP0Ho7x
a9D7ppjVQIgEg+2rM0N+goa/XboPqX2UGyHOXksjcKIv8TlVMkvVRFvws5NQ5DF5
HyzHMYewCXuaCMtkiTYkTb++amgu4kqVwm9uddzciXbUeAaum3Wdv2OaZAnMBHTg
uh0jKVWH2o8/9yuWrKfZuhesAVJtwcoIo4jkKMEjKKjAochKn5h3CN9ggU68cgdN
dlKr8U4kSIXSpo4vZV45M76xEIz6zD2SUDA1AWG3vrGa3PoYNrqudoAx3x/osNCv
EF/Snw==
=oEBN
-----END PGP MESSAGE-----
